public/filters/1.cube
LUT_3D_SIZE 6
0.153742 0.153742 0.153790
0.187280 0.169465 0.169526
0.340639 0.189800 0.189955
0.583749 0.247888 0.248055
0.849622 0.314405 0.314544
1.000420 0.447318 0.447410
0.170824 0.188146 0.170891
0.187251 0.187234 0.170013
0.336490 0.221578 0.179085
0.579289 0.283454 0.237430
0.845384 0.348378 0.305433
1.000262 0.466756 0.444795
0.149766 0.322597 0.149970
0.197317 0.320736 0.146367
0.314641 0.314679 0.134474
0.559070 0.393667 0.200485
0.825048 0.461688 0.277263
1.000018 0.541954 0.434497
0.175155 0.543776 0.175402
0.233084 0.542677 0.174436
0.374140 0.539273 0.169211
0.531123 0.531231 0.159153
0.787529 0.605457 0.245616
0.995766 0.658775 0.402386
0.231797 0.768514 0.231983
0.280610 0.767396 0.231055
0.416651 0.763367 0.228656
0.578850 0.755366 0.223545
0.741583 0.741777 0.214559
0.975599 0.790640 0.291337
0.285165 0.974183 0.285275
0.323851 0.973046 0.284263
0.441068 0.968054 0.281284
0.589247 0.957890 0.274343
0.742863 0.941015 0.263125
0.896696 0.915245 0.242943
0.159021 -0.202050 0.179015
0.179645 -0.198037 0.182094
0.336959 -0.169240 0.228997
0.584743 0.128358 0.301995
0.853734 0.248969 0.372422
1.004545 0.413497 0.483639
0.170480 0.187760 0.188501
0.211071 0.211048 0.211503
0.323797 0.212861 0.213439
0.570702 0.265590 0.266346
0.842656 0.335570 0.336267
1.000346 0.468009 0.468397
0.148918 0.322201 0.200052
0.180336 0.308809 0.181067
0.300480 0.300508 0.166938
0.551879 0.379908 0.225825
0.824586 0.451333 0.303914
1.000018 0.542060 0.457851
0.174888 0.543486 0.234533
0.193938 0.533786 0.195037
0.356114 0.529019 0.190231
0.519602 0.519743 0.178751
0.785271 0.599069 0.267954
0.995757 0.658178 0.426887
0.231662 0.768192 0.282096
0.250182 0.763563 0.251090
0.401470 0.759808 0.248727
0.570643 0.751247 0.242851
0.736542 0.736755 0.231971
0.977120 0.789609 0.312916
0.284729 0.973756 0.323860
0.303019 0.973740 0.302735
0.429955 0.968383 0.299564
0.583343 0.957769 0.291240
0.740257 0.940919 0.278478
0.894905 0.913609 0.258120
0.196748 -0.155652 0.344444
0.234045 -0.158069 0.344472
0.334972 -0.177481 0.337904
0.583021 0.116877 0.425403
0.852462 0.243219 0.497007
1.004669 0.412754 0.562877
0.190668 0.230237 0.342086
0.220107 0.220086 0.328587
0.321294 0.207893 0.322210
0.569729 0.261094 0.402643
0.841163 0.330765 0.471613
1.000273 0.466487 0.549039
0.144004 0.319420 0.320201
0.175359 0.305794 0.306732
0.340060 0.340033 0.340449
0.510368 0.356147 0.356434
0.803180 0.437159 0.437614
1.000018 0.570999 0.571350
0.173095 0.542229 0.377471
0.192992 0.532526 0.359790
0.317567 0.487153 0.317913
0.475177 0.475274 0.302122
0.769165 0.578574 0.389252
0.995015 0.670890 0.542102
0.230752 0.766731 0.419501
0.250134 0.763227 0.404401
0.359598 0.739811 0.360228
0.542441 0.729891 0.350838
0.711558 0.711735 0.333887
0.973480 0.788771 0.452859
0.282355 0.971737 0.440342
0.301170 0.971712 0.428905
0.407992 0.967002 0.405784
0.570253 0.955037 0.394480
0.730459 0.935501 0.377670
0.885171 0.904490 0.352320
0.287500 0.184667 0.596507
0.322706 0.180103 0.596485
0.432373 0.157918 0.591939
0.576822 0.090716 0.579184
0.847500 0.235651 0.661966
1.004982 0.411639 0.686492
0.267354 0.307693 0.590078
0.291047 0.291033 0.579172
0.411942 0.279545 0.576037
0.564919 0.250417 0.565515
0.839177 0.324307 0.647395
1.000105 0.464268 0.676239
0.222499 0.406962 0.572315
0.248325 0.394401 0.564779
0.367250 0.367228 0.517475
0.506231 0.348873 0.507010
0.800849 0.430516 0.612000
1.000018 0.567777 0.688632
0.168277 0.538798 0.539167
0.188117 0.528033 0.528470
0.310582 0.482643 0.483307
0.532809 0.532819 0.533001
0.732208 0.591794 0.591706
0.991941 0.725756 0.725856
0.228911 0.763948 0.586183
0.248284 0.759258 0.577760
0.355957 0.736827 0.548743
0.556839 0.698764 0.556774
0.680704 0.680768 0.537855
0.961724 0.801968 0.658726
0.276969 0.967450 0.591990
0.294823 0.966264 0.585188
0.400433 0.962169 0.571115
0.605666 0.941026 0.602287
0.733715 0.920838 0.579114
0.865091 0.885727 0.545615
0.384246 0.316316 0.867448
0.414880 0.313438 0.867491
0.519198 0.299462 0.864722
0.670166 0.270242 0.858681
0.839345 0.223409 0.840983
1.005143 0.409436 0.835860
0.359750 0.394783 0.858236
0.383570 0.383557 0.853722
0.497310 0.373103 0.851619
0.656777 0.349520 0.846363
0.832262 0.312406 0.832549
1.000018 0.460867 0.829436
0.317780 0.489004 0.850083
0.344924 0.479773 0.845462
0.465166 0.465157 0.817437
0.623943 0.448431 0.811337
0.795671 0.420759 0.796146
0.999463 0.564135 0.834295
0.262154 0.624065 0.810358
0.284711 0.618635 0.809300
0.411333 0.597974 0.789734
0.602779 0.602823 0.742748
0.726424 0.584799 0.726917
0.990124 0.719229 0.844724
0.224636 0.758556 0.758778
0.243067 0.753978 0.754198
0.349100 0.729659 0.729869
0.548599 0.691561 0.691965
0.735158 0.735185 0.735436
0.943833 0.838790 0.838632
0.268054 0.960574 0.756582
0.285815 0.960522 0.753810
0.391546 0.954259 0.743407
0.594340 0.932893 0.741762
0.777612 0.903192 0.773606
0.848598 0.870438 0.743990
0.485898 0.437404 1.009874
0.504728 0.436398 1.009725
0.575828 0.432231 1.009119
0.690932 0.425633 1.008048
0.836334 0.418381 1.005600
1.005301 0.401200 1.004001
0.467507 0.488126 1.004183
0.488807 0.488805 1.004297
0.563598 0.485125 1.003506
0.684322 0.477994 1.002148
0.832397 0.468560 0.999489
1.000579 0.453193 0.998054
0.454912 0.556858 1.001876
0.477627 0.557746 1.001950
0.587692 0.587691 1.001674
0.697832 0.581808 1.000018
0.837723 0.571548 0.999072
0.999193 0.555252 0.996687
0.433256 0.673519 0.999158
0.455757 0.673284 0.999163
0.566773 0.688108 0.998679
0.745300 0.745229 0.996602
0.852376 0.731016 0.992336
0.986209 0.708666 0.984060
0.371116 0.813057 0.989722
0.394889 0.812334 0.989763
0.510288 0.812991 0.986446
0.691367 0.825623 0.976444
0.851559 0.851540 0.954701
0.934301 0.828329 0.932608
0.270994 0.935652 0.932865
0.288810 0.934462 0.931606
0.389565 0.927373 0.924591
0.585671 0.904640 0.902191
0.769005 0.874911 0.873204
0.877191 0.877224 0.876195
