public/filters/1.cube
LUT_3D_SIZE 16
0.153742 0.153742 0.153790
0.158119 0.157496 0.157532
0.168260 0.163988 0.164030
0.187280 0.169465 0.169526
0.220154 0.170044 0.170141
0.274408 0.175901 0.176049
0.340639 0.189800 0.189955
0.416065 0.206963 0.207122
0.498243 0.226677 0.226850
0.583749 0.247888 0.248055
0.671734 0.269822 0.269986
0.759504 0.292291 0.292459
0.849622 0.314405 0.314544
0.926944 0.349145 0.349279
0.979588 0.394759 0.394839
1.000420 0.447318 0.447410
0.160336 0.160971 0.160368
0.161565 0.161564 0.160982
0.169743 0.166017 0.165242
0.187310 0.170730 0.169537
0.219939 0.171489 0.169569
0.273322 0.178660 0.176194
0.340405 0.192132 0.189347
0.415818 0.209360 0.206382
0.498029 0.229154 0.226082
0.583533 0.250374 0.247320
0.671527 0.272222 0.269212
0.759247 0.294616 0.291712
0.849518 0.316927 0.314097
0.926944 0.351451 0.348994
0.979569 0.396400 0.394464
1.000412 0.448623 0.447232
0.167749 0.172350 0.167814
0.168698 0.172469 0.167913
0.173204 0.173199 0.167795
0.187607 0.177244 0.170478
0.218738 0.179862 0.169041
0.272318 0.187950 0.173539
0.339142 0.202547 0.186212
0.414702 0.220249 0.202816
0.496807 0.240431 0.222568
0.582239 0.261827 0.244008
0.670221 0.284031 0.266512
0.757978 0.305359 0.288343
0.848076 0.328000 0.311544
0.925742 0.360002 0.345465
0.979264 0.404203 0.392736
1.000365 0.454663 0.446444
0.170824 0.188146 0.170891
0.172034 0.188123 0.170859
0.177722 0.188146 0.170880
0.187251 0.187234 0.170013
0.216235 0.193392 0.165372
0.269772 0.204994 0.167138
0.336490 0.221578 0.179085
0.412009 0.240616 0.195512
0.493921 0.261685 0.215563
0.579289 0.283454 0.237430
0.667102 0.305580 0.260277
0.754848 0.327378 0.283429
0.845384 0.348378 0.305433
0.925742 0.379393 0.341138
0.978729 0.419639 0.389148
1.000262 0.466756 0.444795
0.163001 0.214931 0.163104
0.164972 0.214826 0.162978
0.173891 0.214931 0.162241
0.189578 0.213093 0.160414
0.211272 0.211281 0.157436
0.264064 0.228192 0.156129
0.331260 0.248097 0.167708
0.406870 0.269217 0.184394
0.488837 0.291603 0.205000
0.574294 0.314075 0.227544
0.662751 0.336783 0.251299
0.750641 0.357829 0.274239
0.839898 0.379844 0.299000
0.923518 0.406489 0.332340
0.977622 0.442920 0.383403
1.000080 0.485406 0.442241
0.152034 0.261735 0.152204
0.155034 0.261641 0.151981
0.168409 0.260853 0.151356
0.191506 0.259865 0.149426
0.221996 0.258889 0.145808
0.254730 0.254775 0.141107
0.323694 0.279909 0.152621
0.399747 0.303866 0.170127
0.481804 0.327990 0.191510
0.567334 0.351527 0.214866
0.655144 0.374451 0.239319
0.744357 0.396644 0.263986
0.833857 0.417918 0.288516
0.921303 0.441309 0.319056
0.976125 0.473592 0.375284
1.000018 0.510587 0.438781
0.149766 0.322597 0.149970
0.153572 0.322544 0.149783
0.170040 0.321691 0.149108
0.197317 0.320736 0.146367
0.233836 0.320134 0.144672
0.273627 0.318034 0.141042
0.314641 0.314679 0.134474
0.391759 0.342603 0.153816
0.473795 0.368845 0.176231
0.559070 0.393667 0.200485
0.646527 0.417236 0.225567
0.735636 0.439901 0.251099
0.825048 0.461688 0.277263
0.916820 0.482923 0.302397
0.973861 0.510694 0.364499
1.000018 0.541954 0.434497
0.153302 0.391860 0.153539
0.157618 0.391778 0.153357
0.176256 0.391860 0.152655
0.207190 0.390835 0.150797
0.246701 0.389597 0.149056
0.290798 0.388305 0.146427
0.337201 0.386774 0.142253
0.383578 0.383627 0.136230
0.465833 0.412717 0.160611
0.550458 0.438950 0.185833
0.637834 0.463985 0.212291
0.724228 0.485809 0.237935
0.813247 0.508169 0.265558
0.903687 0.529768 0.292747
0.970905 0.553033 0.350474
0.999173 0.577810 0.428020
0.162276 0.466990 0.162526
0.166861 0.466922 0.162369
0.186938 0.466030 0.162487
0.219956 0.465949 0.161520
0.261168 0.465750 0.158417
0.308337 0.464802 0.157360
0.357189 0.462813 0.154145
0.407629 0.460879 0.150536
0.457581 0.457666 0.145007
0.541172 0.485439 0.171937
0.626821 0.510940 0.199026
0.712246 0.533543 0.226398
0.800166 0.556231 0.254875
0.891136 0.579153 0.283358
0.966650 0.598517 0.330222
0.997833 0.617089 0.417960
0.175155 0.543776 0.175402
0.179734 0.543747 0.175296
0.199178 0.543776 0.174517
0.233084 0.542677 0.174436
0.275914 0.542354 0.173482
0.323431 0.540487 0.171936
0.374140 0.539273 0.169211
0.426497 0.537423 0.166775
0.479291 0.534990 0.163828
0.531123 0.531231 0.159153
0.616512 0.558935 0.188722
0.700471 0.581934 0.216011
0.787529 0.605457 0.245616
0.875608 0.627447 0.273177
0.960515 0.645886 0.299867
0.995766 0.658775 0.402386
0.191773 0.619780 0.192002
0.196078 0.619684 0.191903
0.214560 0.619780 0.191083
0.247637 0.618660 0.191029
0.290274 0.618297 0.190597
0.338134 0.616254 0.189942
0.389470 0.615117 0.188006
0.442592 0.613084 0.186483
0.496613 0.610700 0.184657
0.550582 0.607704 0.182251
0.603980 0.604135 0.178651
0.687761 0.629089 0.206428
0.772241 0.652066 0.234617
0.860004 0.675523 0.263445
0.943826 0.693622 0.287717
0.992443 0.702112 0.377950
0.212072 0.695061 0.212307
0.216024 0.694974 0.212222
0.233064 0.695061 0.211384
0.264375 0.693868 0.211342
0.305346 0.693425 0.210512
0.352935 0.692338 0.209889
0.403802 0.690171 0.208771
0.457023 0.688083 0.207297
0.511347 0.685477 0.205518
0.566041 0.682349 0.203497
0.620744 0.679019 0.201210
0.673652 0.673809 0.196581
0.757150 0.697981 0.225137
0.843647 0.722192 0.253460
0.925062 0.739855 0.278024
0.987186 0.746596 0.338806
0.231797 0.768514 0.231983
0.235411 0.768553 0.231926
0.251070 0.768514 0.231056
0.280610 0.767396 0.231055
0.320030 0.766604 0.230401
0.366101 0.764510 0.229829
0.416651 0.763367 0.228656
0.469557 0.761169 0.227201
0.523843 0.758495 0.225523
0.578850 0.755366 0.223545
0.634118 0.751815 0.222032
0.688787 0.747611 0.218309
0.741583 0.741777 0.214559
0.825610 0.765754 0.242566
0.905187 0.783724 0.268127
0.975599 0.790640 0.291337
0.250600 0.839274 0.250776
0.253909 0.839154 0.250706
0.269089 0.839274 0.250739
0.296035 0.837993 0.249824
0.333720 0.837216 0.249339
0.378665 0.835910 0.248842
0.427799 0.833812 0.247574
0.479980 0.831489 0.246204
0.533838 0.828703 0.244538
0.588592 0.825296 0.242609
0.643126 0.820911 0.240147
0.697996 0.816394 0.238222
0.752531 0.811882 0.235108
0.805865 0.806093 0.230548
0.883869 0.824511 0.257091
0.953317 0.831429 0.280855
0.267708 0.903678 0.267870
0.270721 0.903534 0.267779
0.283824 0.902491 0.266935
0.309701 0.902435 0.266897
0.345450 0.901322 0.266519
0.388343 0.901064 0.265173
0.436162 0.898009 0.264749
0.487129 0.895470 0.263395
0.540012 0.892511 0.261775
0.593922 0.888823 0.259887
0.648215 0.884611 0.257351
0.702684 0.879846 0.255468
0.757080 0.875299 0.252359
0.808806 0.867610 0.248382
0.860573 0.860780 0.244438
0.929066 0.867979 0.268717
0.285165 0.974183 0.285275
0.287974 0.974178 0.285155
0.300016 0.973051 0.284356
0.323851 0.973046 0.284263
0.356419 0.972577 0.283065
0.396124 0.969845 0.282107
0.441068 0.968054 0.281284
0.488812 0.965410 0.279418
0.538447 0.961903 0.277119
0.589247 0.957890 0.274343
0.640662 0.952976 0.271773
0.692063 0.947727 0.267233
0.742863 0.941015 0.263125
0.794540 0.934343 0.257921
0.844733 0.925353 0.250755
0.896696 0.915245 0.242943
0.146701 -0.213063 0.147385
0.149237 -0.211227 0.149825
0.159477 -0.205286 0.156689
0.178312 -0.198629 0.163496
0.211625 -0.197456 0.165273
0.269203 -0.189424 0.174785
0.337159 -0.167564 0.192008
0.414254 -0.128937 0.213672
0.498036 0.047082 0.238739
0.585038 0.130900 0.263130
0.674737 0.177346 0.287603
0.764129 0.215843 0.312004
0.853844 0.249524 0.335378
0.932571 0.296399 0.369690
0.984993 0.353093 0.413597
1.004541 0.413745 0.463559
0.160477 0.161113 0.161296
0.163745 0.163743 0.163907
0.170737 0.167098 0.167264
0.187774 0.171450 0.171666
0.219189 0.171159 0.171487
0.272618 0.177265 0.177709
0.339625 0.190913 0.191416
0.415071 0.207837 0.208375
0.497377 0.227457 0.227993
0.583091 0.248624 0.249170
0.671886 0.270607 0.271139
0.759892 0.293030 0.293567
0.849504 0.315395 0.315886
0.926944 0.350082 0.350518
0.979552 0.395784 0.396105
1.000419 0.448383 0.448672
0.167744 0.172346 0.168761
0.170048 0.173781 0.170212
0.174060 0.174055 0.170455
0.188960 0.178882 0.173646
0.218055 0.179685 0.171184
0.271633 0.187066 0.175574
0.338430 0.201419 0.188378
0.414007 0.218818 0.204885
0.496249 0.238802 0.224462
0.581897 0.260133 0.245810
0.670657 0.282542 0.268446
0.757549 0.303829 0.290165
0.848058 0.326335 0.313087
0.926944 0.360228 0.348587
0.979244 0.403514 0.394351
1.000372 0.454395 0.447800
0.170767 0.188108 0.172222
0.172723 0.188618 0.172939
0.177991 0.188990 0.172224
0.188198 0.188180 0.172090
0.216424 0.193848 0.168448
0.269197 0.204582 0.169964
0.335808 0.220518 0.181317
0.411413 0.239245 0.197493
0.493477 0.260177 0.217404
0.578955 0.281900 0.239200
0.667745 0.304280 0.262145
0.755526 0.326115 0.285230
0.845367 0.347569 0.307835
0.925742 0.378767 0.343393
0.978709 0.418989 0.390766
1.000270 0.466498 0.446182
0.162964 0.214893 0.165407
0.165012 0.214544 0.165364
0.173616 0.214034 0.164514
0.189411 0.212804 0.162772
0.211514 0.211517 0.160404
0.263533 0.227641 0.158864
0.330621 0.247081 0.169814
0.406265 0.267977 0.186306
0.488437 0.290295 0.206761
0.573992 0.312733 0.229216
0.662279 0.334893 0.252203
0.750263 0.356492 0.275966
0.839884 0.378547 0.300554
0.923518 0.405165 0.333651
0.977705 0.442314 0.385044
1.000087 0.485149 0.443629
0.151999 0.261739 0.155741
0.153792 0.260938 0.154312
0.167463 0.259969 0.153917
0.190071 0.259166 0.150899
0.221094 0.257954 0.148605
0.254428 0.254464 0.143685
0.322948 0.278926 0.154579
0.399115 0.302789 0.171850
0.481311 0.326807 0.193113
0.566991 0.350319 0.216436
0.655664 0.373644 0.240964
0.742815 0.395041 0.265594
0.833835 0.416850 0.290107
0.921303 0.440664 0.321247
0.976099 0.473054 0.376945
1.000018 0.510334 0.440157
0.149791 0.322597 0.154441
0.150923 0.321754 0.151599
0.167669 0.320789 0.150790
0.195954 0.319929 0.149015
0.232322 0.319229 0.146385
0.273108 0.317975 0.142566
0.313734 0.313773 0.136185
0.390997 0.341618 0.155353
0.473261 0.367884 0.177710
0.558719 0.392650 0.201952
0.646977 0.416673 0.227032
0.734131 0.438626 0.253486
0.825113 0.460869 0.278911
0.916820 0.481907 0.303665
0.973981 0.510285 0.366200
1.000018 0.541715 0.435863
0.153379 0.391873 0.158615
0.154042 0.390944 0.154808
0.173796 0.390929 0.154825
0.205281 0.389999 0.153042
0.245154 0.388666 0.151311
0.289320 0.387423 0.147766
0.336084 0.385886 0.143646
0.382644 0.382710 0.137559
0.465168 0.411869 0.161904
0.549971 0.438088 0.187146
0.637141 0.462884 0.213608
0.724814 0.485663 0.240160
0.813218 0.507256 0.266386
0.904843 0.529522 0.294069
0.970965 0.552619 0.352221
0.999198 0.577635 0.429419
0.162383 0.466962 0.167871
0.162815 0.466176 0.163614
0.183042 0.466003 0.163021
0.216748 0.465217 0.161817
0.259046 0.464029 0.160486
0.306130 0.463049 0.158542
0.355993 0.462072 0.155354
0.406631 0.460096 0.151718
0.456748 0.456851 0.146139
0.540613 0.484690 0.173101
0.626980 0.510717 0.201035
0.712653 0.533341 0.227595
0.800122 0.555732 0.256678
0.891165 0.578577 0.284705
0.966594 0.598116 0.332087
0.997868 0.616885 0.419436
0.175301 0.543779 0.180730
0.175684 0.543129 0.176472
0.195636 0.542758 0.175690
0.230291 0.542112 0.175487
0.273392 0.541737 0.173778
0.322020 0.540875 0.172194
0.372934 0.538652 0.170358
0.425504 0.536814 0.167917
0.478494 0.534343 0.164908
0.530474 0.530597 0.160244
0.615642 0.557931 0.188958
0.700853 0.581918 0.217115
0.787459 0.604887 0.245909
0.875628 0.627208 0.275459
0.960428 0.645542 0.301956
0.995678 0.658642 0.403836
0.191875 0.619775 0.197008
0.192320 0.619270 0.193071
0.211704 0.619775 0.192723
0.244918 0.618230 0.192091
0.287875 0.616768 0.191743
0.336196 0.615784 0.190181
0.388217 0.614677 0.189165
0.441591 0.612608 0.187597
0.495803 0.610262 0.185770
0.549883 0.607168 0.183338
0.603787 0.603923 0.178881
0.687050 0.628363 0.208408
0.772289 0.652000 0.236789
0.860026 0.675222 0.264947
0.943907 0.693428 0.289025
0.992469 0.702024 0.379548
0.212170 0.695045 0.216882
0.212706 0.694643 0.213415
0.229997 0.693983 0.212528
0.262634 0.694643 0.213266
0.303392 0.693154 0.211636
0.350958 0.690969 0.210999
0.402661 0.689901 0.209910
0.456025 0.687714 0.208412
0.510540 0.685080 0.206629
0.565502 0.682126 0.204586
0.620183 0.678602 0.201423
0.673617 0.673721 0.197651
0.757153 0.697936 0.227221
0.843678 0.721871 0.254264
0.925066 0.739637 0.279251
0.987166 0.746432 0.340561
0.231872 0.768486 0.236170
0.232487 0.768331 0.233113
0.247987 0.768486 0.231788
0.278952 0.767231 0.232996
0.318728 0.766587 0.232395
0.364941 0.765403 0.230950
0.415520 0.763244 0.229768
0.468613 0.761009 0.228343
0.523146 0.758350 0.226606
0.578256 0.755086 0.224621
0.633670 0.751783 0.222248
0.688501 0.747501 0.220263
0.740859 0.741053 0.214831
0.824644 0.764732 0.243779
0.905218 0.783555 0.269291
0.975769 0.790574 0.292587
0.250661 0.839232 0.254600
0.251354 0.839028 0.251926
0.265941 0.839232 0.251061
0.294600 0.837910 0.251792
0.332028 0.837166 0.250477
0.377280 0.835868 0.249952
0.426754 0.833832 0.248717
0.479118 0.831445 0.247307
0.533199 0.828600 0.245643
0.588012 0.825176 0.243690
0.642753 0.820809 0.241252
0.698627 0.817367 0.239300
0.752377 0.811748 0.236173
0.805848 0.806050 0.230786
0.883894 0.824437 0.258166
0.953286 0.831246 0.282018
0.267756 0.903620 0.271358
0.268476 0.903530 0.268989
0.282322 0.903620 0.268697
0.307813 0.902431 0.267960
0.344428 0.901346 0.268512
0.387245 0.899898 0.267187
0.435127 0.897949 0.265856
0.486310 0.895435 0.264519
0.539362 0.892419 0.262881
0.593394 0.888750 0.260958
0.647785 0.884594 0.258453
0.702338 0.879823 0.256533
0.755902 0.873994 0.254212
0.809612 0.868605 0.249436
0.860402 0.860609 0.245401
0.929042 0.867876 0.269778
0.285088 0.974217 0.288221
0.285931 0.974091 0.286193
0.298398 0.973086 0.285661
0.322170 0.973055 0.285230
0.354916 0.972669 0.283843
0.395433 0.969894 0.283723
0.440181 0.968145 0.282063
0.488082 0.965364 0.280153
0.537887 0.961920 0.277782
0.588813 0.957926 0.274942
0.640086 0.952992 0.271546
0.691815 0.947763 0.267828
0.742720 0.941008 0.263598
0.794232 0.934285 0.257519
0.844687 0.925346 0.251224
0.896618 0.915181 0.243428
0.152213 -0.208345 0.157994
0.154043 -0.207316 0.159090
0.160780 -0.204449 0.162272
0.179634 -0.198263 0.171003
0.212406 -0.197532 0.175439
0.268218 -0.189681 0.186461
0.337040 -0.168095 0.205308
0.414135 -0.129923 0.227398
0.497939 0.043674 0.252534
0.584943 0.130055 0.276860
0.674654 0.177296 0.301365
0.764124 0.214994 0.324971
0.853799 0.249355 0.348269
0.932571 0.297221 0.381816
0.984943 0.352911 0.422808
1.004539 0.413691 0.470323
0.163504 0.164406 0.168768
0.165773 0.165774 0.170093
0.170944 0.166965 0.171333
0.188105 0.171764 0.177850
0.219194 0.171823 0.181084
0.272675 0.177489 0.189703
0.339629 0.190734 0.204641
0.415107 0.207666 0.222494
0.497424 0.227293 0.242580
0.583065 0.248466 0.263787
0.671931 0.270446 0.285608
0.759858 0.291981 0.306762
0.848330 0.316110 0.330239
0.926944 0.350873 0.363359
0.979506 0.395592 0.405511
1.000414 0.448262 0.455459
0.167899 0.172483 0.172848
0.169967 0.173729 0.174082
0.183173 0.183167 0.183620
0.192314 0.182308 0.182622
0.216874 0.181801 0.182176
0.268016 0.185015 0.185544
0.334421 0.197602 0.198224
0.410149 0.213566 0.214226
0.492948 0.232678 0.233396
0.579443 0.253580 0.254292
0.668214 0.275923 0.276614
0.757169 0.298099 0.298758
0.846981 0.321980 0.322624
0.925742 0.356629 0.357168
0.979207 0.401708 0.402147
1.000400 0.454325 0.454667
0.170730 0.188068 0.177978
0.172424 0.188399 0.178361
0.182761 0.192379 0.183039
0.191350 0.191329 0.182645
0.215373 0.194128 0.178970
0.265118 0.202411 0.181242
0.331945 0.216779 0.191881
0.407968 0.234223 0.207138
0.490769 0.254347 0.226260
0.576984 0.275799 0.247594
0.665884 0.298140 0.270264
0.754566 0.320023 0.292874
0.846372 0.342600 0.316201
0.924664 0.374897 0.351614
0.978612 0.417105 0.398519
1.000297 0.466285 0.452934
0.162692 0.214741 0.174700
0.164677 0.214393 0.174519
0.175442 0.213881 0.175852
0.190547 0.211803 0.175292
0.210114 0.210104 0.172458
0.259867 0.224587 0.170567
0.327221 0.243069 0.180175
0.403286 0.263059 0.195514
0.486033 0.284876 0.215248
0.572237 0.307212 0.237351
0.660761 0.329801 0.260830
0.749504 0.351601 0.284252
0.839752 0.373536 0.308109
0.923518 0.402282 0.342751
0.977509 0.440552 0.392910
1.000117 0.484906 0.450374
0.151670 0.261566 0.169555
0.153571 0.260865 0.168369
0.163611 0.257151 0.164254
0.187223 0.255560 0.162898
0.217151 0.253934 0.159193
0.251230 0.251258 0.154764
0.319337 0.274758 0.164326
0.395970 0.298119 0.180448
0.478866 0.321938 0.201084
0.565218 0.345465 0.224155
0.654089 0.368976 0.249073
0.743192 0.391009 0.273455
0.833789 0.413175 0.298649
0.920157 0.438134 0.331257
0.976046 0.471411 0.384924
1.000018 0.510050 0.446911
0.149511 0.322501 0.171430
0.150987 0.321790 0.169300
0.159368 0.317964 0.160204
0.189659 0.316321 0.159076
0.226207 0.314692 0.155303
0.267427 0.312730 0.152049
0.309202 0.309245 0.145071
0.387276 0.337100 0.163158
0.470377 0.363410 0.185011
0.556676 0.388352 0.209122
0.645979 0.412771 0.234477
0.734085 0.434819 0.259893
0.824902 0.457486 0.286693
0.916820 0.479628 0.313591
0.973786 0.508696 0.374335
1.000018 0.541357 0.442578
0.153134 0.391720 0.177652
0.154344 0.391030 0.174885
0.159966 0.387056 0.160941
0.195489 0.385398 0.160687
0.237330 0.384399 0.158443
0.283621 0.383795 0.155526
0.330935 0.381577 0.150756
0.378084 0.378158 0.144451
0.461737 0.407717 0.168497
0.547612 0.434282 0.193726
0.636615 0.460005 0.220298
0.723401 0.481806 0.245985
0.813030 0.504653 0.274502
0.904852 0.526745 0.301304
0.970739 0.551276 0.360703
0.999271 0.577263 0.436226
0.162204 0.466904 0.187912
0.163254 0.466261 0.184837
0.168182 0.461994 0.169225
0.206153 0.462346 0.169057
0.250659 0.461299 0.166705
0.299183 0.459202 0.164593
0.350486 0.458371 0.161587
0.402072 0.456276 0.157755
0.452723 0.452797 0.151975
0.537748 0.481157 0.179100
0.624653 0.507298 0.206977
0.711882 0.530666 0.233706
0.799895 0.553318 0.262724
0.891223 0.576501 0.292043
0.966376 0.596882 0.341081
0.997933 0.616507 0.426334
0.175144 0.543703 0.200751
0.176162 0.543165 0.197655
0.180298 0.540595 0.181341
0.218445 0.539065 0.181150
0.264816 0.538772 0.180478
0.315210 0.537837 0.178785
0.367355 0.535751 0.176191
0.420967 0.533746 0.173657
0.474658 0.531174 0.170499
0.527116 0.527256 0.165649
0.612658 0.554568 0.195449
0.698337 0.578678 0.223514
0.787132 0.603086 0.252213
0.876772 0.626080 0.281270
0.960182 0.644400 0.312012
0.995700 0.658220 0.410950
0.191793 0.619623 0.216184
0.192763 0.619267 0.213242
0.196969 0.617509 0.197951
0.233794 0.616108 0.197956
0.279469 0.615582 0.197472
0.329790 0.614570 0.195815
0.382882 0.612432 0.194880
0.437275 0.610364 0.193226
0.492267 0.607848 0.191318
0.546983 0.604811 0.188755
0.600635 0.600770 0.184410
0.685048 0.625937 0.213848
0.771835 0.650615 0.242364
0.859964 0.674010 0.271196
0.944524 0.692454 0.295635
0.992398 0.701612 0.387081
0.212112 0.694934 0.234674
0.213072 0.694580 0.231969
0.218195 0.692809 0.219099
0.251586 0.692391 0.218126
0.295480 0.690411 0.218219
0.344515 0.689378 0.216619
0.397481 0.688262 0.215595
0.451959 0.686141 0.214015
0.507287 0.683523 0.212156
0.562817 0.680433 0.210007
0.618168 0.677101 0.206951
0.671905 0.672029 0.202214
0.756381 0.696716 0.231549
0.843574 0.721189 0.260682
0.925400 0.738901 0.285471
0.987043 0.746013 0.349080
0.231798 0.768486 0.252632
0.232787 0.768243 0.250218
0.237050 0.767328 0.237875
0.269020 0.765986 0.237949
0.310641 0.765501 0.237196
0.358903 0.764277 0.236578
0.410715 0.762264 0.235428
0.464778 0.759882 0.233935
0.520029 0.757173 0.232152
0.575703 0.753869 0.230094
0.631671 0.750608 0.227773
0.685887 0.745143 0.223975
0.739882 0.739967 0.219624
0.825113 0.764738 0.248882
0.905139 0.782871 0.275080
0.976199 0.790186 0.298707
0.250600 0.839041 0.269822
0.251590 0.839002 0.267656
0.255899 0.837923 0.256652
0.285925 0.837909 0.257075
0.325717 0.836590 0.257041
0.371717 0.835373 0.255569
0.422281 0.833284 0.254391
0.475556 0.830878 0.252927
0.530340 0.828024 0.251208
0.585751 0.824585 0.249187
0.641057 0.820280 0.246804
0.696396 0.815655 0.244790
0.751451 0.811207 0.241477
0.804823 0.804971 0.236397
0.883562 0.823749 0.263522
0.953570 0.830952 0.287741
0.267677 0.903396 0.285340
0.268658 0.903390 0.283395
0.273888 0.902296 0.274572
0.301280 0.903390 0.274643
0.337679 0.901235 0.273324
0.382112 0.899733 0.272771
0.431088 0.897838 0.271531
0.483012 0.895229 0.270100
0.536759 0.892196 0.268416
0.591299 0.888473 0.266426
0.646241 0.884368 0.263983
0.701018 0.879544 0.261110
0.754589 0.873391 0.258197
0.808057 0.867154 0.255505
0.859693 0.859963 0.250252
0.928908 0.867495 0.275000
0.284916 0.974002 0.300695
0.285886 0.974024 0.298939
0.291171 0.974002 0.291303
0.315460 0.974024 0.290391
0.349906 0.972816 0.289825
0.390724 0.969905 0.288619
0.436552 0.968294 0.287149
0.485069 0.965375 0.285048
0.535445 0.961965 0.282500
0.586877 0.957897 0.279564
0.638652 0.952949 0.276260
0.690664 0.947734 0.272467
0.741685 0.940585 0.268637
0.792328 0.932621 0.261679
0.844006 0.924846 0.255360
0.896044 0.914688 0.247564
0.159021 -0.202050 0.179015
0.160785 -0.201563 0.179517
0.167909 -0.199971 0.180731
0.179645 -0.198037 0.182094
0.213187 -0.197725 0.193222
0.268104 -0.190347 0.208136
0.336959 -0.169240 0.228997
0.414035 -0.131924 0.252079
0.497771 0.035325 0.277560
0.584743 0.128358 0.301995
0.674470 0.175596 0.326181
0.762766 0.214132 0.349163
0.853734 0.248969 0.372422
0.932571 0.296191 0.403099
0.984971 0.352500 0.440548
1.004545 0.413497 0.483639
0.167975 0.169290 0.187013
0.169737 0.169739 0.187256
0.176670 0.171003 0.187866
0.188240 0.171463 0.188990
0.218953 0.171222 0.197171
0.272449 0.176761 0.210508
0.339358 0.190117 0.228156
0.414859 0.206960 0.247582
0.497164 0.226563 0.268588
0.582823 0.247778 0.290104
0.671703 0.269696 0.311825
0.758584 0.292162 0.333158
0.848270 0.314850 0.354716
0.926944 0.349826 0.385316
0.979377 0.395235 0.423812
1.000404 0.448111 0.468948
0.170302 0.177419 0.188889
0.172064 0.177831 0.189185
0.182311 0.182312 0.193194
0.191256 0.182982 0.191822
0.216933 0.180724 0.196473
0.268129 0.185407 0.207013
0.334492 0.197083 0.222259
0.410265 0.213084 0.240425
0.493070 0.232233 0.260733
0.579464 0.253171 0.281999
0.668320 0.275469 0.304083
0.756146 0.297670 0.325566
0.846908 0.321524 0.348555
0.925742 0.356342 0.380328
0.979120 0.401227 0.420549
1.000391 0.453988 0.468023
0.170480 0.187760 0.188501
0.172235 0.188139 0.188885
0.181644 0.191267 0.191958
0.211071 0.211048 0.211503
0.218909 0.202138 0.202482
0.260599 0.203456 0.203894
0.323797 0.212861 0.213439
0.399351 0.226950 0.227617
0.482958 0.245032 0.245771
0.570702 0.265590 0.266346
0.661756 0.287588 0.288365
0.752289 0.310311 0.311085
0.842656 0.335570 0.336267
0.923518 0.369609 0.370209
0.978300 0.415409 0.415944
1.000346 0.468009 0.468397
0.162203 0.214424 0.191735
0.164177 0.214087 0.191483
0.175053 0.212692 0.191515
0.199105 0.216691 0.199455
0.215004 0.214984 0.197498
0.255406 0.223229 0.195942
0.319402 0.237662 0.203573
0.395714 0.255214 0.216746
0.479682 0.275497 0.234675
0.567324 0.297343 0.255759
0.657122 0.320151 0.278847
0.747587 0.342637 0.302131
0.840633 0.366102 0.326554
0.921303 0.397904 0.362677
0.977284 0.438652 0.410283
1.000166 0.486140 0.465603
0.150989 0.261190 0.193554
0.152869 0.260510 0.192573
0.162934 0.256762 0.188595
0.188868 0.251679 0.189345
0.215443 0.248944 0.186487
0.246421 0.246400 0.180894
0.311868 0.267609 0.187368
0.388926 0.289645 0.200727
0.472977 0.312795 0.219625
0.560625 0.336266 0.241842
0.650943 0.360022 0.266175
0.740503 0.382588 0.290599
0.833479 0.406169 0.316421
0.919086 0.433717 0.351070
0.975711 0.469484 0.402525
1.000018 0.510971 0.462136
0.148918 0.322201 0.200052
0.150385 0.321468 0.198398
0.158299 0.317650 0.190761
0.180336 0.308809 0.181067
0.217699 0.307719 0.177207
0.259266 0.305120 0.173455
0.300480 0.300508 0.166938
0.379342 0.328228 0.182045
0.463971 0.354604 0.202337
0.551879 0.379908 0.225825
0.642169 0.404684 0.251230
0.733334 0.428261 0.276960
0.824586 0.451333 0.303914
0.914596 0.475520 0.335116
0.973431 0.506792 0.392287
1.000018 0.542060 0.457851
0.152665 0.391536 0.209368
0.153858 0.390764 0.207217
0.160349 0.386789 0.197070
0.177818 0.377682 0.178748
0.223825 0.376241 0.176984
0.271274 0.374122 0.172810
0.320669 0.372499 0.168408
