public/filters/b.cube
TITLE "Generated by Resolve"
LUT_3D_SIZE 9
0 0 0
0.00471504 0.00518807 0.00514229
0.0130922 0.014374 0.0142519
0.0237736 0.0261082 0.0258793
0.0363012 0.0398871 0.0395209
0.0504311 0.055375 0.0549172
0.0659648 0.0724346 0.0718242
0.0827649 0.0908827 0.0901198
0.100725 0.110628 0.109651
0.0305638 0.0301823 0.0305943
0.0443427 0.0444343 0.0448005
0.0594644 0.0603799 0.0606699
0.0758831 0.0778363 0.0780346
0.0934768 0.0966659 0.0967422
0.112184 0.116762 0.116701
0.131945 0.138048 0.137835
0.152682 0.160433 0.160067
0.17435 0.183871 0.183337
0.0847791 0.0837415 0.0848859
0.103441 0.102861 0.10396
0.123018 0.123262 0.124285
0.143542 0.144839 0.145754
0.164981 0.167514 0.168322
0.18732 0.191241 0.191897
0.210498 0.215946 0.216464
0.234516 0.241611 0.241978
0.259327 0.268193 0.268376
0.154009 0.152117 0.154223
0.176425 0.17499 0.17705
0.199557 0.198947 0.200931
0.223453 0.223896 0.225772
0.248127 0.24979 0.25156
0.273548 0.2766 0.278218
0.299702 0.304265 0.30576
0.326558 0.332784 0.334112
0.354131 0.362127 0.363287
0.235401 0.232242 0.235737
0.26099 0.258289 0.261738
0.28716 0.285283 0.288655
0.313985 0.313146 0.316426
0.341466 0.341863 0.345022
0.369604 0.371405 0.374426
0.398398 0.401724 0.404593
0.427832 0.432807 0.435523
0.457893 0.464637 0.467185
0.327184 0.322438 0.327688
0.35555 0.351278 0.356481
0.384421 0.380957 0.386084
0.413855 0.411444 0.416464
0.443885 0.44271 0.447608
0.474495 0.474708 0.479469
0.505684 0.507424 0.512047
0.537469 0.540856 0.545327
0.569818 0.574975 0.579263
0.427939 0.421698 0.428595
0.458808 0.45304 0.459892
0.49012 0.485176 0.491951
0.521935 0.518044 0.524712
0.554284 0.551614 0.558175
0.587167 0.585885 0.592309
0.620584 0.620829 0.6271
0.654536 0.656428 0.662547
0.689006 0.692668 0.698619
0.536751 0.529198 0.53756
0.56994 0.562844 0.57116
0.603494 0.597223 0.605463
0.637507 0.632288 0.640421
0.672007 0.668025 0.676036
0.707012 0.704402 0.712291
0.742489 0.741421 0.749157
0.77847 0.779049 0.786633
0.814939 0.817288 0.824689
0.653132 0.644221 0.654078
0.688457 0.680003 0.689815
0.724117 0.716487 0.726223
0.760189 0.753613 0.763241
0.796704 0.791363 0.80087
0.833677 0.829725 0.839109
0.871107 0.868681 0.877913
0.90901 0.908232 0.917311
0.947356 0.948348 0.957259
0.00109865 0.00105287 0.000686656
0.00750744 0.00793469 0.00750744
0.0168002 0.0180514 0.0175479
0.0282139 0.0305028 0.0299077
0.0413519 0.0448768 0.0441596
0.0560006 0.060914 0.0600595
0.0720073 0.0784466 0.0774548
0.08925 0.0973373 0.0961776
0.107637 0.117494 0.116167
0.0352331 0.0348058 0.0348516
0.0495766 0.0496376 0.0496223
0.0652171 0.0660868 0.0660105
0.0820935 0.0840162 0.0838331
0.10013 0.103273 0.102983
0.119234 0.123781 0.123323
0.139345 0.145434 0.144823
0.160449 0.16817 0.167407
0.182467 0.191943 0.191058
0.0911574 0.0900893 0.0908522
0.110231 0.109621 0.110338
0.13019 0.130404 0.131044
0.15108 0.152346 0.152895
0.172885 0.175372 0.175799
0.195544 0.19942 0.199725
0.219059 0.22446 0.224598
0.243366 0.250431 0.250416
0.268467 0.277287 0.277104
0.1617 0.159747 0.161486
0.184451 0.182971 0.184665
0.207904 0.207248 0.208865
0.23212 0.232517 0.234012
0.257084 0.258717 0.260105
0.282795 0.285801 0.287053
0.309224 0.313756 0.31487
0.33637 0.34255 0.343496
0.364187 0.372152 0.37293
0.244175 0.24097 0.244099
0.270054 0.267323 0.27039
0.296513 0.294591 0.297597
0.323613 0.322744 0.325643
0.351354 0.35172 0.354513
0.379767 0.381521 0.384161
0.408804 0.412085 0.414588
0.438483 0.443412 0.445762
0.468788 0.475486 0.477653
0.336919 0.332128 0.337011
0.365545 0.361227 0.366064
0.394675 0.391165 0.395926
0.424353 0.421912 0.426551
0.454627 0.453407 0.457938
0.485466 0.485649 0.490043
0.516899 0.518593 0.52285
0.548898 0.552254 0.556344
0.581476 0.586587 0.590509
0.438514 0.432242 0.438773
0.469642 0.463828 0.470314
0.501183 0.496193 0.502586
0.533227 0.52929 0.535592
0.565805 0.563104 0.569268
0.598901 0.597589 0.603632
0.632532 0.632746 0.638636
0.666697 0.668559 0.674296
0.701381 0.704997 0.710567
0.548135 0.540536 0.548516
0.581537 0.574395 0.582345
0.615305 0.609003 0.616861
0.649546 0.644282 0.652049
0.68426 0.680217 0.687861
0.719448 0.716808 0.724315
0.755138 0.754025 0.761395
0.791318 0.791852 0.799054
0.827985 0.830289 0.837324
0.665248 0.656291 0.665766
0.700771 0.692287 0.701717
0.736629 0.728969 0.738323
0.7729 0.766293 0.775555
0.809613 0.804242 0.813382
0.846784 0.842802 0.851804
0.884413 0.881941 0.890806
0.922499 0.921675 0.930373
0.961028 0.961975 0.970504
0.00303655 0.00292973 0.00189212
0.0106966 0.0110475 0.00996414
0.0208286 0.0220035 0.0208438
0.0328985 0.0351263 0.033875
0.0466163 0.0500801 0.0487068
0.0617838 0.0666361 0.0651255
0.0782635 0.0846265 0.0829786
0.0959335 0.103944 0.102129
0.114717 0.124498 0.122515
0.0401465 0.0396582 0.0390326
0.0550546 0.055024 0.0543679
0.0711833 0.0719768 0.0712444
0.0885023 0.0903639 0.0895094
0.10695 0.110033 0.109071
0.126452 0.130922 0.129824
0.146944 0.152941 0.151705
0.168383 0.176028 0.17464
0.190738 0.200153 0.198581
0.0977188 0.0965744 0.0966964
0.117205 0.116518 0.116579
0.137545 0.137697 0.137682
0.158801 0.159991 0.159884
0.180941 0.183368 0.183139
0.203937 0.207736 0.207385
0.227741 0.233097 0.232563
0.252369 0.259358 0.258701
0.27776 0.286503 0.285695
0.169543 0.167529 0.168597
0.19263 0.191089 0.192111
0.216403 0.215686 0.216632
0.240925 0.241245 0.2421
0.266194 0.26775 0.268482
0.29218 0.295125 0.29572
0.318898 0.323354 0.323812
0.346303 0.352422 0.352712
0.374395 0.382269 0.382391
0.253086 0.249821 0.252293
0.279271 0.276463 0.278874
0.306004 0.304021 0.306355
0.333379 0.332433 0.334676
0.361395 0.361685 0.363806
0.390051 0.39173 0.393729
0.419348 0.422553 0.424399
0.449271 0.454124 0.455817
0.479805 0.486427 0.487953
0.346777 0.341924 0.346136
0.375677 0.371283 0.375448
0.405051 0.40148 0.40557
0.434989 0.432471 0.436454
0.465492 0.46421 0.468071
0.496574 0.496681 0.50042
0.528237 0.529854 0.533455
0.560464 0.563745 0.567178
0.593256 0.598291 0.601556
0.449241 0.442893 0.448753
0.480598 0.474723 0.480537
0.512367 0.507317 0.513054
0.54464 0.540642 0.546273
0.577447 0.57467 0.580179
0.610758 0.609369 0.614755
0.644602 0.644739 0.649989
0.678981 0.680766 0.685847
0.713863 0.717418 0.722332
0.559625 0.551965 0.559289
0.593256 0.586053 0.593332
0.627253 0.620859 0.628077
0.661692 0.656352 0.663462
0.696605 0.692515 0.699489
0.732006 0.729305 0.736156
0.767895 0.76672 0.773419
0.804273 0.804746 0.811292
0.841138 0.843366 0.849744
0.67747 0.668452 0.677272
0.713207 0.704646 0.71342
0.749264 0.741527 0.750225
0.785733 0.779049 0.787655
0.822644 0.817197 0.825681
0.860014 0.85594 0.864286
0.897826 0.895293 0.903487
0.936095 0.93521 0.943252
0.974807 0.975692 0.983566
0.00552377 0.00531014 0.00341802
0.0142214 0.0144808 0.0125277
0.0251316 0.026215 0.0241855
0.0378424 0.0399786 0.0378424
0.0521096 0.0554818 0.0532235
0.0677653 0.0725261 0.0701457
0.0846876 0.0909743 0.0884413
0.102785 0.110704 0.108019
0.12195 0.131655 0.128801
0.0452888 0.0447089 0.0432136
0.0607156 0.0606088 0.0590677
0.0773327 0.0780346 0.0764324
0.0950942 0.096849 0.09514
0.113954 0.116945 0.115114
0.133837 0.138201 0.136248
0.154681 0.160586 0.15848
0.176471 0.184024 0.18175
0.199145 0.208469 0.206027
0.104463 0.103227 0.102464
0.124346 0.123568 0.122759
0.145068 0.145113 0.144228
0.166674 0.167773 0.166781
0.189151 0.19147 0.190372
0.212451 0.216175 0.214939
0.236591 0.241825 0.240452
0.261494 0.268391 0.26685
0.287175 0.295842 0.294118
0.177523 0.175418 0.175631
0.200961 0.199313 0.199466
0.225055 0.224231 0.224308
0.249866 0.250095 0.25008
0.275425 0.27689 0.276753
0.301701 0.304555 0.30428
0.328679 0.333059 0.332631
0.356359 0.362387 0.361822
0.38471 0.392493 0.391775
0.26215 0.258778 0.26038
0.288609 0.28571 0.287251
0.315618 0.313542 0.315007
0.343267 0.342229 0.343603
0.371542 0.37174 0.372992
0.400458 0.402045 0.403174
0.429999 0.433112 0.434089
0.460166 0.464927 0.465751
0.490944 0.497475 0.498116
0.356771 0.351827 0.355169
0.385916 0.381445 0.384741
0.415549 0.411887 0.415106
0.445731 0.443122 0.446235
0.476478 0.47509 0.478096
0.50779 0.507805 0.510674
0.539681 0.541207 0.543938
0.572122 0.575311 0.577874
0.605142 0.610086 0.612482
0.460075 0.453635 0.458625
0.491661 0.485695 0.490639
0.523674 0.518517 0.523384
0.556176 0.552071 0.556848
0.589181 0.586328 0.590967
0.622721 0.621241 0.625757
0.656779 0.656825 0.661204
0.691356 0.693065 0.697261
0.726452 0.729915 0.733959
0.571237 0.56347 0.569924
0.605081 0.597787 0.604196
0.639292 0.632807 0.639155
0.673945 0.668513 0.674754
0.709072 0.704875 0.710994
0.744671 0.741863 0.747845
0.780758 0.779477 0.785321
0.817334 0.8177 0.823377
0.854383 0.856519 0.862028
0.689799 0.68069 0.68864
0.725734 0.717083 0.725002
0.762005 0.754177 0.762005
0.798672 0.791897 0.799619
0.835782 0.830228 0.837842
0.873335 0.869169 0.876646
0.91133 0.908705 0.91603
0.949783 0.948806 0.955978
0.988693 0.989471 0.996475
0.00846876 0.00813306 0.00497444
0.0180972 0.0182193 0.0150149
0.0297093 0.0306554 0.0273747
0.0430304 0.0450294 0.0416419
0.0578317 0.0610666 0.057557
0.0739757 0.078584 0.0749523
0.0913252 0.0974746 0.0936904
0.109834 0.117617 0.11368
0.129381 0.138949 0.134829
0.0506752 0.049958 0.0472114
0.0666209 0.0663767 0.0635843
0.0836957 0.0842756 0.0814069
0.101884 0.103517 0.100542
0.121141 0.123995 0.120912
0.14139 0.145632 0.142412
0.1626 0.168368 0.165011
0.184726 0.192142 0.188617
0.207721 0.216907 0.213214
0.111406 0.110033 0.108019
0.13167 0.13077 0.128695
0.152758 0.152682 0.15053
0.174716 0.175677 0.173434
0.197513 0.19971 0.19736
0.221149 0.224735 0.222248
0.245579 0.25069 0.248051
0.270787 0.277546 0.274754
0.296742 0.305272 0.302312
0.185702 0.183459 0.182406
0.209445 0.207675 0.206577
0.23386 0.232898 0.231724
0.258976 0.259068 0.257801
0.284825 0.286152 0.284749
0.311376 0.314092 0.312566
0.338628 0.34287 0.341192
0.366567 0.372457 0.370611
0.395163 0.402823 0.400809
0.271351 0.267857 0.268193
0.2981 0.295064 0.295354
0.325399 0.323186 0.3234
0.353307 0.352148 0.352255
0.381842 0.381918 0.381903
0.411017 0.412467 0.412329
0.440803 0.443778 0.443503
0.471214 0.475837 0.47541
0.502205 0.508614 0.507973
0.366903 0.361822 0.363912
0.396307 0.391699 0.393744
0.426184 0.4224 0.424353
0.456611 0.453864 0.455726
0.487602 0.486076 0.487831
0.519142 0.51902 0.520623
0.551263 0.552666 0.554116
0.583932 0.586984 0.588281
0.617151 0.621973 0.623102
0.471046 0.464469 0.468208
0.502876 0.496773 0.50045
0.535103 0.529824 0.53344
0.567834 0.563607 0.567117
0.601068 0.598077 0.601465
0.634821 0.633204 0.636469
0.669093 0.669001 0.672114
0.703868 0.70544 0.708385
0.739178 0.742504 0.745281
0.582971 0.575082 0.580285
0.617044 0.609613 0.614771
0.651469 0.644846 0.649927
0.68632 0.680766 0.68574
0.72166 0.717327 0.722194
0.757473 0.754528 0.759243
0.793759 0.79234 0.796918
0.830518 0.830762 0.835172
0.867765 0.869764 0.874006
0.702251 0.693004 0.699702
0.738399 0.72961 0.736263
0.774868 0.766903 0.77348
0.811734 0.804822 0.811292
0.849027 0.843351 0.849699
0.886778 0.88249 0.888701
0.924956 0.922194 0.928267
0.963607 0.962493 0.968399
1 1 1
0.0118105 0.0113069 0.00656138
0.0222782 0.0222324 0.0174411
0.0345617 0.0353399 0.0304723
0.0484474 0.0502937 0.0453193
0.0637675 0.0668345 0.0617533
0.0803693 0.0848249 0.0796063
0.0981613 0.104143 0.0987716
0.117052 0.124681 0.119158
0.136995 0.14638 0.140688
0.0562905 0.0554055 0.0510872
0.0727245 0.0723125 0.0679484
0.0902571 0.0906691 0.0862135
0.108873 0.110323 0.105776
0.128511 0.131197 0.126528
0.149126 0.153201 0.148409
0.170687 0.176287 0.171344
0.193149 0.200397 0.195285
0.216464 0.225483 0.220203
0.118532 0.116991 0.11339
0.139178 0.138094 0.134463
0.160632 0.160372 0.156649
0.182925 0.183719 0.179904
0.206058 0.208087 0.204135
0.229999 0.233417 0.229343
0.254734 0.259678 0.255451
0.280232 0.286824 0.282445
0.306462 0.314824 0.310277
0.194034 0.191623 0.188983
0.218097 0.216159 0.213474
0.242817 0.241688 0.238926
0.268238 0.268162 0.265293
0.294362 0.295521 0.292546
0.321187 0.323735 0.320623
0.348714 0.352789 0.349523
0.376913 0.382635 0.379217
0.405768 0.413245 0.409659
0.28072 0.277043 0.275807
0.307744 0.30454 0.303258
0.335317 0.332921 0.331563
0.363485 0.362158 0.360678
0.392279 0.392187 0.3906
0.421698 0.42298 0.421271
0.451728 0.454551 0.452674
0.482368 0.486839 0.48481
0.513603 0.519844 0.517647
0.377172 0.371923 0.372427
0.406836 0.40206 0.402518
0.436973 0.433005 0.433387
0.467628 0.464714 0.465003
0.498848 0.497169 0.497322
0.530632 0.530327 0.530358
0.562966 0.564202 0.56408
0.595865 0.598733 0.598474
0.629297 0.633951 0.633494
0.482139 0.47541 0.477562
0.514214 0.507942 0.510048
0.54667 0.541222 0.543252
0.579629 0.575219 0.577142
0.613077 0.609903 0.611719
0.647044 0.645258 0.646937
0.681514 0.68127 0.682795
0.716503 0.717906 0.71928
0.75201 0.755169 0.756374
0.594842 0.586786 0.590402
0.629129 0.62153 0.625101
0.663752 0.656977 0.660471
0.698833 0.693111 0.696498
0.734371 0.72987 0.73315
0.770367 0.767269 0.770413
0.806851 0.80528 0.80827
0.843824 0.843885 0.846723
0.881254 0.883085 0.885756
0.714839 0.705425 0.710536
0.751186 0.742229 0.747295
0.787839 0.779721 0.78471
0.824903 0.817838 0.822721
0.862394 0.85655 0.861326
0.900328 0.895872 0.900511
0.938704 0.935775 0.940261
0.977523 0.976242 0.980575
1 1 1
0.0154574 0.0148013 0.00856031
0.026688 0.0264897 0.0202029
0.0395972 0.0402228 0.033875
0.0540475 0.0557259 0.0492714
0.0698558 0.072755 0.0661784
0.0869154 0.0912032 0.0844892
0.105119 0.110933 0.104082
0.124407 0.131868 0.124865
0.144701 0.153948 0.146761
0.0620737 0.0610361 0.0552224
0.0789807 0.0784161 0.0725567
0.0969558 0.0972 0.0912642
0.115969 0.117266 0.111223
0.135988 0.138521 0.132357
0.15697 0.160891 0.154604
0.178882 0.184314 0.177874
0.201663 0.208759 0.202152
0.225284 0.23415 0.227375
0.125765 0.124071 0.11899
0.146792 0.145556 0.140429
0.168597 0.168185 0.162982
0.191226 0.191867 0.186557
0.214679 0.216556 0.211124
0.238941 0.242191 0.236637
0.263966 0.268742 0.263035
0.289738 0.296178 0.290318
0.316258 0.324468 0.318425
0.202457 0.199878 0.195758
0.226841 0.224735 0.220569
0.251865 0.250584 0.246326
0.277577 0.277348 0.272999
0.30399 0.304982 0.300511
0.33109 0.333471 0.328878
0.358877 0.362783 0.358038
0.38732 0.392889 0.387976
0.416434 0.423758 0.418677
0.290166 0.286336 0.283604
0.317464 0.314107 0.31133
0.345296 0.342763 0.33991
0.373739 0.372244 0.369299
0.402792 0.402533 0.399451
0.432456 0.433585 0.430381
0.46273 0.465385 0.462028
0.493599 0.497917 0.494392
0.525078 0.531151 0.527459
0.387518 0.382116 0.38114
0.417441 0.412497 0.411475
0.447807 0.443687 0.442588
0.478706 0.475639 0.474434
0.51017 0.508324 0.506996
0.542168 0.541726 0.540261
0.574731 0.575814 0.574197
0.607843 0.610574 0.608804
0.641505 0.645991 0.644053
0.493309 0.486412 0.487083
0.525612 0.519173 0.519799
0.558297 0.552697 0.553231
0.59147 0.586908 0.58735
0.625147 0.62182 0.622141
0.659312 0.657374 0.657572
0.694011 0.693584 0.693629
0.729198 0.730434 0.730312
0.764889 0.767895 0.767605
0.606775 0.59855 0.600687
0.64126 0.633509 0.635599
0.676112 0.669169 0.671183
0.711391 0.705501 0.707408
0.747127 0.742473 0.744259
0.783337 0.780072 0.78172
0.82002 0.81828 0.819791
0.85716 0.857084 0.858427
0.894789 0.896468 0.897642
0.727459 0.717891 0.721523
0.764019 0.75491 0.75848
0.80087 0.792584 0.796094
0.838132 0.8309 0.834302
0.875822 0.86981 0.873091
0.913939 0.909331 0.912474
0.952499 0.949416 0.952407
0.991501 0.990066 0.992905
1 1 1
0.0193484 0.018555 0.0109865
0.0312963 0.0309453 0.0233463
0.0448157 0.045304 0.0376135
0.0597848 0.061326 0.0535439
0.0760662 0.0788434 0.0709392
0.0935683 0.0977188 0.0896773
0.112184 0.117861 0.109682
0.131853 0.139178 0.130846
0.152514 0.161608 0.153094
0.0679942 0.066804 0.0596628
0.0853742 0.0846571 0.0774701
0.103761 0.103868 0.0966049
0.123171 0.124331 0.11696
0.143572 0.145968 0.138476
0.16492 0.168688 0.161074
0.187152 0.192447 0.18468
0.210254 0.217212 0.209277
0.23418 0.242908 0.234806
0.13312 0.131273 0.124865
0.154513 0.15314 0.14667
0.176654 0.176104 0.169574
0.199619 0.200122 0.193484
0.223392 0.225116 0.218372
0.247944 0.251072 0.244175
0.273274 0.277913 0.270878
0.299336 0.305623 0.298436
0.326116 0.334188 0.326818
0.210956 0.208255 0.202808
0.23566 0.233417 0.227924
0.260975 0.259556 0.253986
0.286976 0.28661 0.280934
0.31368 0.314534 0.308736
0.341054 0.343297 0.337362
0.3691 0.372869 0.366796
0.397803 0.40322 0.396994
0.427146 0.434348 0.427939
0.299672 0.295705 0.291646
0.32726 0.323751 0.319646
0.355352 0.352682 0.348501
0.384054 0.382422 0.378134
0.413352 0.412955 0.40856
0.443275 0.444251 0.439719
0.473777 0.476295 0.471611
0.504891 0.509056 0.504219
0.536583 0.542519 0.537499
0.397925 0.392386 0.390066
0.428092 0.423011 0.420661
0.458717 0.454444 0.452018
0.489845 0.486641 0.484108
0.521538 0.519554 0.516899
0.553765 0.55317 0.550393
0.586557 0.587488 0.584543
0.619883 0.622461 0.619364
0.653742 0.658091 0.654826
0.50454 0.497505 0.496834
0.537057 0.530495 0.529778
0.56997 0.564233 0.563439
0.603372 0.598672 0.597772
0.637247 0.633783 0.632776
0.671641 0.669566 0.668421
0.706538 0.705974 0.704692
0.741924 0.743023 0.741573
0.777829 0.780697 0.77908
0.618753 0.610376 0.611185
0.653452 0.645563 0.646311
0.688502 0.681437 0.682109
0.723995 0.717968 0.718547
0.75993 0.755138 0.755596
0.796338 0.792935 0.793256
0.833219 0.831327 0.83151
0.870558 0.870329 0.870344
0.90837 0.909911 0.909758
0.740139 0.730434 0.732723
0.776898 0.767651 0.769894
0.813947 0.805524 0.807691
0.851408 0.844022 0.846098
0.889281 0.883131 0.885084
0.927581 0.922835 0.924651
0.966339 0.963104 0.964782
1 1 1
1 1 1
0.0235142 0.0225681 0.0136568
0.0361181 0.0356298 0.0266728
0.0502174 0.0505531 0.0415198
0.0657054 0.0670939 0.0579538
0.0824445 0.085069 0.0758221
0.100374 0.104387 0.0949874
0.119387 0.124926 0.115389
0.139437 0.146609 0.136919
0.160449 0.169406 0.159533
0.0740826 0.072755 0.0642557
0.0919051 0.0910506 0.0825055
0.110719 0.110674 0.102068
0.130526 0.131533 0.12282
0.151278 0.153521 0.144686
0.172976 0.176608 0.167636
0.195544 0.200702 0.191577
0.218952 0.225772 0.216495
0.243198 0.251774 0.242329
0.140597 0.138613 0.130846
0.162341 0.16083 0.153017
0.184833 0.184146 0.176257
0.208133 0.208484 0.200488
0.232212 0.233799 0.225681
0.257069 0.260044 0.251804
0.282673 0.287175 0.278782
0.309026 0.315175 0.30663
0.33608 0.343999 0.335286
0.219577 0.216724 0.209934
0.244587 0.242206 0.235355
0.270207 0.268635 0.261707
0.296498 0.295979 0.288945
0.323461 0.324178 0.317037
0.351095 0.353201 0.345922
0.3794 0.383032 0.375616
0.408362 0.413642 0.406058
0.437964 0.445014 0.437263
0.309285 0.30518 0.299763
0.337133 0.333486 0.328038
0.365499 0.362676 0.357153
0.394461 0.392691 0.387045
0.424018 0.423468 0.417716
0.45417 0.455009 0.449119
0.484916 0.487282 0.481254
0.516258 0.520272 0.514092
0.54818 0.553964 0.547601
0.408423 0.402731 0.399069
0.438849 0.433616 0.429908
0.469703 0.465293 0.461509
0.501076 0.497719 0.493828
0.532982 0.530861 0.526864
0.565438 0.564706 0.560571
0.598444 0.599237 0.594949
0.631983 0.634424 0.629984
0.666072 0.670268 0.66566
0.515846 0.508659 0.506645
0.548592 0.541878 0.539818
0.581735 0.575845 0.573709
0.615335 0.610498 0.608255
0.649439 0.645823 0.643473
0.684031 0.681819 0.679316
0.719142 0.718441 0.715801
0.754726 0.755688 0.752895
0.790829 0.793545 0.790585
0.630793 0.622293 0.621744
0.665721 0.657679 0.657084
0.700984 0.693767 0.693095
0.736675 0.730495 0.729732
0.772808 0.76788 0.766979
0.809415 0.805859 0.804837
0.846479 0.84445 0.84329
0.884016 0.883635 0.882307
0.922011 0.9234 0.921904
0.752895 0.743038 0.743984
0.789837 0.780453 0.781353
0.8271 0.818524 0.819348
0.864744 0.857221 0.857939
0.9028 0.896513 0.897124
0.941299 0.9364 0.936873
0.980224 0.976852 0.977172
1 1 1
1 1 1
