public/filters/b.cube
TITLE "Generated by Resolve"
LUT_3D_SIZE 5
0 0 0
0.0130922 0.014374 0.0142519
0.0363012 0.0398871 0.0395209
0.0659648 0.0724346 0.0718242
0.100725 0.110628 0.109651
0.0847791 0.0837415 0.0848859
0.123018 0.123262 0.124285
0.164981 0.167514 0.168322
0.210498 0.215946 0.216464
0.259327 0.268193 0.268376
0.235401 0.232242 0.235737
0.28716 0.285283 0.288655
0.341466 0.341863 0.345022
0.398398 0.401724 0.404593
0.457893 0.464637 0.467185
0.427939 0.421698 0.428595
0.49012 0.485176 0.491951
0.554284 0.551614 0.558175
0.620584 0.620829 0.6271
0.689006 0.692668 0.698619
0.653132 0.644221 0.654078
0.724117 0.716487 0.726223
0.796704 0.791363 0.80087
0.871107 0.868681 0.877913
0.947356 0.948348 0.957259
0.00303655 0.00292973 0.00189212
0.0208286 0.0220035 0.0208438
0.0466163 0.0500801 0.0487068
0.0782635 0.0846265 0.0829786
0.114717 0.124498 0.122515
0.0977188 0.0965744 0.0966964
0.137545 0.137697 0.137682
0.180941 0.183368 0.183139
0.227741 0.233097 0.232563
0.27776 0.286503 0.285695
0.253086 0.249821 0.252293
0.306004 0.304021 0.306355
0.361395 0.361685 0.363806
0.419348 0.422553 0.424399
0.479805 0.486427 0.487953
0.449241 0.442893 0.448753
0.512367 0.507317 0.513054
0.577447 0.57467 0.580179
0.644602 0.644739 0.649989
0.713863 0.717418 0.722332
0.67747 0.668452 0.677272
0.749264 0.741527 0.750225
0.822644 0.817197 0.825681
0.897826 0.895293 0.903487
0.974807 0.975692 0.983566
0.00846876 0.00813306 0.00497444
0.0297093 0.0306554 0.0273747
0.0578317 0.0610666 0.057557
0.0913252 0.0974746 0.0936904
0.129381 0.138949 0.134829
0.111406 0.110033 0.108019
0.152758 0.152682 0.15053
0.197513 0.19971 0.19736
0.245579 0.25069 0.248051
0.296742 0.305272 0.302312
0.271351 0.267857 0.268193
0.325399 0.323186 0.3234
0.381842 0.381918 0.381903
0.440803 0.443778 0.443503
0.502205 0.508614 0.507973
0.471046 0.464469 0.468208
0.535103 0.529824 0.53344
0.601068 0.598077 0.601465
0.669093 0.669001 0.672114
0.739178 0.742504 0.745281
0.702251 0.693004 0.699702
0.774868 0.766903 0.77348
0.849027 0.843351 0.849699
0.924956 0.922194 0.928267
1 1 1
0.0154574 0.0148013 0.00856031
0.0395972 0.0402228 0.033875
0.0698558 0.072755 0.0661784
0.105119 0.110933 0.104082
0.144701 0.153948 0.146761
0.125765 0.124071 0.11899
0.168597 0.168185 0.162982
0.214679 0.216556 0.211124
0.263966 0.268742 0.263035
0.316258 0.324468 0.318425
0.290166 0.286336 0.283604
0.345296 0.342763 0.33991
0.402792 0.402533 0.399451
0.46273 0.465385 0.462028
0.525078 0.531151 0.527459
0.493309 0.486412 0.487083
0.558297 0.552697 0.553231
0.625147 0.62182 0.622141
0.694011 0.693584 0.693629
0.764889 0.767895 0.767605
0.727459 0.717891 0.721523
0.80087 0.792584 0.796094
0.875822 0.86981 0.873091
0.952499 0.949416 0.952407
1 1 1
0.0235142 0.0225681 0.0136568
0.0502174 0.0505531 0.0415198
0.0824445 0.085069 0.0758221
0.119387 0.124926 0.115389
0.160449 0.169406 0.159533
0.140597 0.138613 0.130846
0.184833 0.184146 0.176257
0.232212 0.233799 0.225681
0.282673 0.287175 0.278782
0.33608 0.343999 0.335286
0.309285 0.30518 0.299763
0.365499 0.362676 0.357153
0.424018 0.423468 0.417716
0.484916 0.487282 0.481254
0.54818 0.553964 0.547601
0.515846 0.508659 0.506645
0.581735 0.575845 0.573709
0.649439 0.645823 0.643473
0.719142 0.718441 0.715801
0.790829 0.793545 0.790585
0.752895 0.743038 0.743984
0.8271 0.818524 0.819348
0.9028 0.896513 0.897124
0.980224 0.976852 0.977172
1 1 1
