public/filters/b.cube
TITLE "Generated by Resolve"
LUT_3D_SIZE 33
0 0 0
0.000610361 0.000671397 0.000671397
0.00169375 0.0018616 0.00184634
0.00308232 0.0033875 0.00335698
0.00471504 0.00518807 0.00514229
0.00654612 0.00720226 0.00712596
0.00857557 0.00941482 0.00932326
0.0107576 0.0118105 0.0117037
0.0130922 0.014374 0.0142519
0.0155642 0.0170901 0.0169375
0.0181735 0.0199588 0.019791
0.0209201 0.0229801 0.0227665
0.0237736 0.0261082 0.0258793
0.0267491 0.0293736 0.0291295
0.0298314 0.0327611 0.0324865
0.0330205 0.0362707 0.0359503
0.0363012 0.0398871 0.0395209
0.0396887 0.0436103 0.0432136
0.043183 0.047425 0.047013
0.0467689 0.0513619 0.0509346
0.0504311 0.055375 0.0549172
0.0541848 0.0595102 0.0589761
0.0580301 0.0637217 0.0631876
0.0619364 0.06804 0.0674296
0.0659648 0.0724346 0.0718242
0.0700389 0.0769207 0.0762341
0.0742046 0.0814832 0.0808118
0.0784314 0.0861524 0.0853895
0.0827649 0.0908827 0.0901198
0.087129 0.0957046 0.0948501
0.0915847 0.100603 0.0997177
0.0961166 0.105577 0.104646
0.100725 0.110628 0.109651
0.00396735 0.00392157 0.00396735
0.00575265 0.00576791 0.00581369
0.00772107 0.00784314 0.00787366
0.00985733 0.0101167 0.010132
0.0121462 0.0125582 0.0125582
0.0145724 0.0151675 0.0151522
0.0171359 0.0179294 0.0178988
0.0198367 0.0208438 0.020798
0.0226444 0.0238956 0.0238193
0.0255894 0.0270695 0.0269627
0.0286259 0.0303655 0.0302434
0.0317845 0.0337835 0.0336461
0.0350347 0.0373236 0.0371557
0.0383917 0.0409705 0.0407721
0.0418402 0.0447242 0.0444953
0.0453803 0.0485847 0.0483253
0.049012 0.0525368 0.0522469
0.0527352 0.0565957 0.0562753
0.0565499 0.0607462 0.0603952
0.060441 0.0649882 0.0646067
0.0644236 0.0693217 0.0688945
0.0684672 0.0737469 0.0732891
0.0726024 0.0782635 0.07776
0.0768139 0.0828565 0.0823224
0.0811017 0.087541 0.0869612
0.0854658 0.0923018 0.0916915
0.0898909 0.0971389 0.0964981
0.0943923 0.102068 0.101366
0.09897 0.107057 0.106325
0.103609 0.112139 0.11136
0.108324 0.117281 0.116472
0.1131 0.122499 0.121645
0.117937 0.127794 0.126894
0.011017 0.0108797 0.0110323
0.0134432 0.0133669 0.0135042
0.0159762 0.0160067 0.016144
0.0186465 0.0188144 0.0189364
0.0214389 0.0217594 0.0218662
0.0243381 0.0248417 0.0249332
0.0273442 0.0280613 0.0281224
0.0304723 0.0313878 0.0314336
0.0336919 0.0348516 0.0348669
0.0370184 0.038407 0.038407
0.0404364 0.0420844 0.0420691
0.043946 0.0458686 0.0458228
0.0475624 0.0497597 0.0496834
0.0512551 0.0537423 0.0536355
0.0550393 0.0578317 0.0576944
0.0588998 0.0620127 0.0618448
0.0628519 0.0662852 0.0660868
0.0668803 0.070634 0.0704204
0.070985 0.0750896 0.0748302
0.0751659 0.0796216 0.0793317
0.0794232 0.0842451 0.0839246
0.0837568 0.0889448 0.0885939
0.0881666 0.0937362 0.0933394
0.0926528 0.0986038 0.0981613
0.0972 0.103548 0.103075
0.101808 0.108568 0.108049
0.106508 0.113664 0.1131
0.111254 0.118822 0.118242
0.116075 0.124071 0.123445
0.120958 0.129381 0.12871
0.125902 0.134768 0.134051
0.130922 0.14023 0.139467
0.135988 0.145754 0.144945
0.0200046 0.0197604 0.0200351
0.0229191 0.0227359 0.0229953
0.0259251 0.0258488 0.0261082
0.0290379 0.0290837 0.0293278
0.0322423 0.0324559 0.0326848
0.0355383 0.035935 0.0361486
0.038941 0.0395361 0.0397192
0.0424353 0.0432441 0.0434119
0.0460059 0.0470588 0.0471962
0.0496834 0.0509651 0.0510872
0.0534371 0.0549783 0.0550851
0.0572824 0.0590829 0.0591592
0.0612039 0.0632944 0.0633402
0.0652018 0.0675975 0.0676127
0.0692912 0.0719768 0.0719615
0.0734569 0.0764477 0.0764172
0.0776837 0.0810101 0.0809491
0.082002 0.0856641 0.0855573
0.0863813 0.0903792 0.0902419
0.090837 0.0951858 0.0950179
0.0953689 0.100084 0.0998703
0.0999619 0.105043 0.104799
0.104631 0.110094 0.109804
0.109361 0.115206 0.114885
0.114153 0.120394 0.120043
0.11902 0.125658 0.125261
0.123949 0.130999 0.130571
0.128939 0.1364 0.135927
0.133989 0.141878 0.14136
0.139101 0.147417 0.146868
0.144274 0.153033 0.152438
0.149508 0.158709 0.158068
0.154803 0.164462 0.163775
0.0305638 0.0301823 0.0305943
0.0338903 0.0335699 0.0339818
0.0372778 0.0370794 0.0374762
0.0407721 0.0406958 0.0410773
0.0443427 0.0444343 0.0448005
0.0480049 0.0482643 0.0486152
0.0517433 0.0522011 0.0525368
0.0555581 0.0562448 0.0565652
0.0594644 0.0603799 0.0606699
0.0634623 0.0646067 0.0648814
0.0675212 0.068925 0.0691691
0.0716564 0.0733501 0.0735637
0.0758831 0.0778363 0.0780346
0.0801709 0.0824292 0.0825818
0.084535 0.0870985 0.0872206
0.0889754 0.0918441 0.0919509
0.0934768 0.0966659 0.0967422
0.0980545 0.101579 0.101625
0.102693 0.106569 0.106569
0.107408 0.111635 0.111604
0.112184 0.116762 0.116701
0.117021 0.121981 0.121889
0.121935 0.12726 0.127123
0.126909 0.132616 0.132448
0.131945 0.138048 0.137835
0.137026 0.143542 0.143297
0.142184 0.149111 0.148821
0.147402 0.154742 0.154406
0.152682 0.160433 0.160067
0.158007 0.166201 0.165789
0.163394 0.17203 0.171572
0.168841 0.17792 0.177432
0.17435 0.183871 0.183337
0.0424506 0.0419165 0.0424964
0.046128 0.0456703 0.0462348
0.0498817 0.0495308 0.0500801
0.0537118 0.0534829 0.0540322
0.0576028 0.057557 0.0580758
0.0615854 0.0617075 0.0622263
0.0656443 0.0659648 0.066453
0.0697642 0.0702983 0.0707713
0.0739757 0.0747387 0.0751965
0.0782483 0.0792554 0.0796826
0.0825971 0.0838636 0.0842603
0.0870222 0.0885481 0.0889296
0.0915084 0.0933242 0.0936751
0.0960708 0.0981765 0.098497
0.100694 0.103105 0.103395
0.105394 0.10811 0.10837
0.11014 0.113191 0.11342
0.114977 0.118349 0.118547
0.11986 0.123583 0.123751
0.124819 0.128893 0.129015
0.129824 0.134264 0.134356
0.134905 0.139712 0.139773
0.140047 0.14522 0.145251
0.145235 0.150805 0.150805
0.1505 0.156451 0.156405
0.15581 0.162173 0.162081
0.161181 0.167956 0.167834
0.166613 0.1738 0.173632
0.172107 0.179721 0.179507
0.177646 0.185687 0.185443
0.183246 0.19173 0.19144
0.188891 0.197818 0.197498
0.194598 0.203983 0.203601
0.0555123 0.0548257 0.0555886
0.0595254 0.0588998 0.0596475
0.0635843 0.0630808 0.0638132
0.0677195 0.0673533 0.0680705
0.071931 0.0717174 0.0724193
0.0762036 0.076173 0.0768597
0.0805371 0.080705 0.0813764
0.0849622 0.0853285 0.0859846
0.0894331 0.0900435 0.0906691
0.0939803 0.0948348 0.0954299
0.0986038 0.0997024 0.100282
0.103273 0.104662 0.105211
0.108019 0.109682 0.110216
0.11284 0.114778 0.115282
0.117708 0.119966 0.120424
0.122652 0.125216 0.125658
0.127642 0.130541 0.130938
0.132708 0.135927 0.136309
0.137835 0.14139 0.141741
0.143008 0.146929 0.147234
0.148257 0.152529 0.152804
0.153552 0.15819 0.158434
0.158907 0.163928 0.164141
0.164324 0.169726 0.169894
0.169802 0.175601 0.175723
0.175326 0.181521 0.181613
0.180911 0.187518 0.187564
0.186542 0.193576 0.193576
0.192233 0.19968 0.199664
0.197986 0.205859 0.205798
0.203784 0.2121 0.211994
0.209628 0.218402 0.218235
0.215534 0.22475 0.224552
0.0696574 0.0688029 0.069749
0.0739605 0.073167 0.0741131
0.0783246 0.0776379 0.0785687
0.0827497 0.0822003 0.0831006
0.0872206 0.0868391 0.0877394
0.0917678 0.0915694 0.0924392
0.0963912 0.096376 0.0972305
0.101061 0.101259 0.102098
0.105806 0.106233 0.107057
0.110597 0.111284 0.112078
0.115465 0.116396 0.117174
0.120394 0.121599 0.122347
0.125383 0.126864 0.127581
0.130434 0.132204 0.132891
0.135546 0.137621 0.138277
0.140703 0.143099 0.14374
0.145937 0.148653 0.149248
0.151217 0.154269 0.154833
0.156573 0.15996 0.160494
0.161975 0.165713 0.166217
0.167422 0.171527 0.172
0.172946 0.177417 0.177844
0.1785 0.183352 0.183749
0.184131 0.189364 0.189715
0.189807 0.195438 0.195758
0.195544 0.201572 0.201846
0.201328 0.207767 0.207996
0.207156 0.214023 0.214221
0.213046 0.220325 0.220493
0.218982 0.226703 0.22681
0.224979 0.233127 0.233204
0.231022 0.239612 0.239643
0.23711 0.246159 0.246143
0.0847791 0.0837415 0.0848859
0.0893721 0.0883955 0.0895399
0.0939956 0.0931411 0.094255
0.0986954 0.0979629 0.0990768
0.103441 0.102861 0.10396
0.108232 0.107851 0.108934
0.1131 0.112917 0.11397
0.118029 0.118044 0.119097
0.123018 0.123262 0.124285
0.128054 0.128557 0.129549
0.13315 0.133913 0.134874
0.138323 0.139345 0.140291
0.143542 0.144839 0.145754
0.148806 0.150408 0.151293
0.154147 0.156039 0.156909
0.159533 0.161746 0.162585
0.164981 0.167514 0.168322
0.170489 0.173358 0.174121
0.176043 0.179248 0.17998
0.181643 0.185214 0.185916
0.18732 0.191241 0.191897
0.193027 0.19733 0.197955
0.19881 0.203479 0.204074
0.204623 0.209674 0.210239
0.210498 0.215946 0.216464
0.216434 0.222278 0.222766
0.2224 0.228672 0.229114
0.228443 0.235111 0.235508
0.234516 0.241611 0.241978
0.24065 0.248173 0.248493
0.246815 0.254795 0.25507
0.25304 0.261463 0.261692
0.259327 0.268193 0.268376
0.100832 0.0995956 0.100969
0.105684 0.104509 0.105867
0.110567 0.109499 0.110857
0.115511 0.11458 0.115908
0.1205 0.119738 0.12105
0.125551 0.124956 0.126268
0.130648 0.130266 0.131548
0.135805 0.135637 0.136904
0.141024 0.141085 0.142321
0.146304 0.146593 0.147814
0.151629 0.152178 0.153368
0.157015 0.157839 0.158999
0.162448 0.163561 0.164691
0.167941 0.169345 0.170459
0.173495 0.175189 0.176272
0.179095 0.181109 0.182162
0.184756 0.187091 0.188098
0.190463 0.193133 0.19411
0.196216 0.199237 0.200183
0.202029 0.205402 0.206317
0.207889 0.211612 0.212497
0.213809 0.217899 0.218753
0.219776 0.224247 0.225055
0.225788 0.230655 0.231434
0.231861 0.23711 0.237842
0.23798 0.243626 0.244327
0.244144 0.250202 0.250858
0.250355 0.25684 0.25745
0.256626 0.263523 0.264103
0.262928 0.270268 0.270802
0.269291 0.277058 0.277562
0.2757 0.283909 0.284367
0.282139 0.290822 0.291218
0.117754 0.116304 0.117906
0.12285 0.121462 0.123049
0.127977 0.126696 0.128283
0.13315 0.132021 0.133577
0.138384 0.137407 0.138949
0.143664 0.14287 0.144396
0.148989 0.148394 0.149905
0.154376 0.153994 0.155489
0.159808 0.159655 0.161135
0.165301 0.165393 0.166842
0.170855 0.171191 0.17261
0.17644 0.177066 0.178454
0.182101 0.182986 0.18436
0.187793 0.188983 0.190326
0.193545 0.195041 0.196353
0.199359 0.20116 0.202441
0.205203 0.20734 0.208591
0.211124 0.213581 0.214801
0.217075 0.219883 0.221057
0.223087 0.22623 0.22739
0.229145 0.232654 0.233768
0.235248 0.239124 0.240208
0.241398 0.24567 0.246708
0.247608 0.252247 0.253254
0.253849 0.2589 0.259861
0.260151 0.265599 0.266529
0.266499 0.272358 0.273243
0.272892 0.279164 0.280018
0.279332 0.28603 0.286839
0.285832 0.292958 0.293721
0.292363 0.299916 0.300649
0.298939 0.30695 0.307637
0.305562 0.314031 0.314672
0.135485 0.133822 0.135668
0.140826 0.139208 0.141054
0.146181 0.144686 0.146502
0.151583 0.150225 0.152041
0.157031 0.15584 0.157626
0.162539 0.161517 0.163287
0.168078 0.167254 0.169024
0.173678 0.173083 0.174823
0.179339 0.178958 0.180667
0.185031 0.184894 0.186587
0.190784 0.190906 0.192584
0.196582 0.196979 0.198627
0.202441 0.203113 0.20473
0.208347 0.209308 0.210895
0.214298 0.215564 0.217121
0.220295 0.221866 0.223407
0.226337 0.228244 0.22974
0.232441 0.234684 0.236149
0.23859 0.241169 0.242603
0.244785 0.247715 0.249119
0.251026 0.254322 0.25568
0.257313 0.260975 0.262303
0.263661 0.267689 0.268986
0.270039 0.274464 0.275715
0.276478 0.281285 0.282506
0.282948 0.288167 0.289357
0.289479 0.295109 0.296239
0.29604 0.302083 0.303197
0.302663 0.309133 0.310185
0.309316 0.316213 0.317235
0.31603 0.323354 0.324331
0.322774 0.330556 0.331487
0.329564 0.337804 0.338689
0.154009 0.152117 0.154223
0.159564 0.157717 0.159823
0.165148 0.163409 0.165499
0.170764 0.169162 0.171237
0.176425 0.17499 0.17705
0.182147 0.18088 0.182925
0.1879 0.186831 0.188861
0.193713 0.192859 0.194858
0.199557 0.198947 0.200931
0.205463 0.205081 0.20705
0.211414 0.211292 0.21323
0.217411 0.217563 0.219471
0.223453 0.223896 0.225772
0.229557 0.230274 0.232136
0.235691 0.236728 0.238544
0.241886 0.243229 0.245029
0.248127 0.24979 0.25156
0.254414 0.256413 0.258137
0.260746 0.263081 0.264775
0.267124 0.26981 0.271473
0.273548 0.2766 0.278218
0.280018 0.283436 0.285023
0.286534 0.290333 0.29189
0.293095 0.297276 0.298787
0.299702 0.304265 0.30576
0.30634 0.31133 0.312764
0.313039 0.318425 0.319829
0.319783 0.325582 0.326955
0.326558 0.332784 0.334112
0.333394 0.340047 0.341329
0.340261 0.347356 0.348608
0.347173 0.354711 0.355917
0.354131 0.362127 0.363287
0.173297 0.17113 0.173526
0.179049 0.176944 0.179339
0.184848 0.182849 0.185229
0.190677 0.188815 0.19118
0.196536 0.194842 0.197192
0.202457 0.200931 0.203265
0.208423 0.207095 0.209415
0.21442 0.213306 0.21561
0.220478 0.219593 0.221866
0.226566 0.22594 0.228183
0.232715 0.232334 0.234562
0.238895 0.238788 0.240986
0.245136 0.245304 0.247486
0.251423 0.251881 0.254032
0.25774 0.258518 0.260624
0.264118 0.265202 0.267277
0.270542 0.271946 0.273991
0.276997 0.278737 0.280766
0.283513 0.285588 0.287587
0.290074 0.2925 0.294453
0.296666 0.299458 0.301381
0.303319 0.306477 0.308354
0.310002 0.313542 0.315389
0.316732 0.320653 0.322469
0.323507 0.327825 0.329595
0.330327 0.335042 0.336782
0.337194 0.342321 0.344015
0.344091 0.34963 0.351293
0.351034 0.357 0.358618
0.358022 0.364431 0.366003
0.365057 0.371893 0.373434
0.372137 0.379416 0.380911
0.379248 0.386984 0.388434
0.193286 0.190845 0.193545
0.199252 0.196872 0.199573
0.205249 0.20296 0.205661
0.211276 0.209125 0.21181
0.21735 0.215366 0.218021
0.223453 0.221653 0.224308
0.229618 0.228 0.23064
0.235813 0.234409 0.237018
0.242054 0.240879 0.243473
0.248341 0.24741 0.249973
0.254658 0.254002 0.256535
0.261036 0.260639 0.263157
0.26746 0.267338 0.269825
0.273915 0.274098 0.276555
0.28043 0.280903 0.28333
0.286976 0.28777 0.290166
0.293568 0.294682 0.297063
0.300206 0.301656 0.304006
0.306889 0.30869 0.310994
0.313619 0.31577 0.318029
0.320394 0.322896 0.325124
0.327199 0.330083 0.33228
0.334051 0.337316 0.339467
0.340963 0.344594 0.346716
0.34789 0.351934 0.354009
0.354879 0.359304 0.361364
0.361898 0.366751 0.36875
0.368963 0.374228 0.376196
0.376074 0.381765 0.383688
0.38323 0.389334 0.391226
0.390417 0.396963 0.39881
0.39765 0.404639 0.406455
0.404913 0.412375 0.41413
0.214008 0.211215 0.214298
0.220172 0.217441 0.220523
0.226352 0.223743 0.226795
0.232578 0.230091 0.233143
0.238834 0.236515 0.239551
0.245136 0.243 0.246006
0.251469 0.249531 0.252537
0.257862 0.256138 0.259113
0.264286 0.262791 0.265736
0.270756 0.26949 0.272435
0.277256 0.276265 0.279164
0.283818 0.283085 0.285969
0.29041 0.289967 0.292821
0.297047 0.296895 0.299718
0.303731 0.303868 0.306676
0.310445 0.310918 0.31368
0.31722 0.317998 0.320745
0.324025 0.325139 0.327855
0.330877 0.332341 0.335012
0.337774 0.33959 0.342214
0.344701 0.346883 0.349477
0.35169 0.354223 0.356786
0.358709 0.361624 0.364157
0.365759 0.36907 0.371557
0.372869 0.376562 0.379019
0.380011 0.384115 0.386526
0.387198 0.391699 0.39408
0.394415 0.399344 0.401679
0.401679 0.407034 0.409323
0.408988 0.414771 0.417014
0.416327 0.422553 0.424765
0.423713 0.430381 0.432547
0.431144 0.438254 0.440375
0.235401 0.232242 0.235737
0.241764 0.238651 0.242145
0.248142 0.245136 0.248615
0.254536 0.251682 0.255146
0.26099 0.258289 0.261738
0.267475 0.264958 0.268391
0.273991 0.271672 0.27509
0.280552 0.278447 0.281849
0.28716 0.285283 0.288655
0.293797 0.292165 0.295521
0.300481 0.299107 0.302434
0.30721 0.306096 0.309407
0.313985 0.313146 0.316426
0.32079 0.320256 0.323507
0.327642 0.327413 0.330617
0.334524 0.334615 0.337804
0.341466 0.341863 0.345022
0.34844 0.349172 0.3523
0.355459 0.356542 0.359625
0.362509 0.363943 0.366995
0.369604 0.371405 0.374426
0.376745 0.378912 0.381903
0.383917 0.386465 0.38941
0.39115 0.394064 0.396979
0.398398 0.401724 0.404593
0.405707 0.409415 0.412253
0.413046 0.417166 0.419959
0.420417 0.424964 0.427726
0.427832 0.432807 0.435523
0.435294 0.440696 0.443366
0.442786 0.448631 0.451255
0.450324 0.456611 0.45919
0.457893 0.464637 0.467185
0.25745 0.25388 0.257832
0.263996 0.260487 0.264424
0.270558 0.267155 0.271092
0.27715 0.273884 0.27779
0.283772 0.280659 0.284566
0.290425 0.287495 0.291386
0.297124 0.294392 0.298268
0.303868 0.30135 0.305196
0.310643 0.308354 0.312184
0.317449 0.315419 0.319219
0.3243 0.32253 0.326299
0.331197 0.329686 0.33344
0.33814 0.336904 0.340627
0.345113 0.344167 0.347875
0.352132 0.351492 0.355154
0.359182 0.358862 0.362493
0.366278 0.366278 0.369879
0.373419 0.373754 0.377325
0.380591 0.381262 0.384802
0.387808 0.38883 0.39234
0.395056 0.396445 0.399924
0.402365 0.40412 0.407553
0.409689 0.411826 0.415229
0.41706 0.419577 0.42295
0.424475 0.42739 0.430716
0.431922 0.435248 0.438529
0.439414 0.443137 0.446387
0.446952 0.451087 0.454292
0.45452 0.459083 0.462242
0.462119 0.467109 0.470237
0.469764 0.475196 0.478279
0.47744 0.48333 0.486366
0.485161 0.491493 0.494484
0.280125 0.276143 0.280552
0.286839 0.282918 0.287312
0.293568 0.289769 0.294148
0.300343 0.296666 0.301045
0.307134 0.303624 0.307973
0.31397 0.310643 0.314977
0.320836 0.317708 0.322026
0.327749 0.324819 0.329122
0.334691 0.332006 0.336278
0.34168 0.339223 0.343481
0.348699 0.346502 0.350729
0.355749 0.353826 0.358038
0.36286 0.361212 0.365393
0.369985 0.368643 0.372793
0.377172 0.37612 0.38024
0.384375 0.383642 0.387732
0.391638 0.391226 0.395285
0.398932 0.398856 0.402884
0.406256 0.406531 0.410513
0.413626 0.414252 0.418204
0.421042 0.422019 0.42594
0.428489 0.429831 0.433722
0.435981 0.437705 0.44155
0.443503 0.445609 0.449424
0.451057 0.453574 0.457343
0.458671 0.46157 0.465309
0.4663 0.469612 0.47332
0.473976 0.477714 0.481376
0.481697 0.485847 0.489464
0.489448 0.494026 0.497612
0.49723 0.502251 0.505791
0.505058 0.510521 0.514015
0.512917 0.518837 0.522286
0.303365 0.299001 0.303838
0.310262 0.305959 0.31078
0.317159 0.312978 0.317784
0.324102 0.320043 0.324834
0.331075 0.327169 0.331945
0.338064 0.334356 0.339117
0.345098 0.341588 0.346334
0.352178 0.348867 0.353597
0.359289 0.356207 0.360906
0.36643 0.363592 0.368277
0.373617 0.371038 0.375692
0.380835 0.378531 0.383154
0.388083 0.386069 0.390661
0.395392 0.393652 0.39823
0.402716 0.401297 0.405829
0.410086 0.408972 0.413489
0.417502 0.416709 0.421195
0.424949 0.424491 0.428931
0.432441 0.432319 0.436728
0.439963 0.440192 0.444572
0.447517 0.448112 0.452461
0.455116 0.456077 0.460395
0.462745 0.464088 0.46836
0.47042 0.472145 0.476387
0.478126 0.480247 0.484459
0.485878 0.488396 0.492561
0.49366 0.49659 0.500725
0.501488 0.504829 0.508919
0.509346 0.513115 0.517159
0.517235 0.521431 0.525444
0.52517 0.529809 0.533761
0.533135 0.538216 0.542138
0.541131 0.54667 0.550546
0.327184 0.322438 0.327688
0.334249 0.329564 0.334813
0.341329 0.336751 0.341985
0.348424 0.343984 0.349203
0.35555 0.351278 0.356481
0.362722 0.358618 0.363806
0.369924 0.366018 0.371191
0.377157 0.373465 0.378607
0.384421 0.380957 0.386084
0.39173 0.38851 0.393606
0.399069 0.396109 0.40119
0.406439 0.403754 0.408804
0.413855 0.411444 0.416464
0.421302 0.419196 0.424186
0.428794 0.426978 0.431952
0.436316 0.434821 0.43975
0.443885 0.44271 0.447608
0.451469 0.450629 0.455512
0.459113 0.45861 0.463447
0.466789 0.466636 0.471443
0.474495 0.474708 0.479469
0.482231 0.482811 0.487556
0.490013 0.490974 0.495674
0.497841 0.499184 0.503838
0.505684 0.507424 0.512047
0.513573 0.515724 0.520302
0.521508 0.524056 0.528603
0.529473 0.532433 0.536934
0.537469 0.540856 0.545327
0.545495 0.549325 0.55375
0.553567 0.557824 0.562203
0.561669 0.566369 0.570718
0.569818 0.574975 0.579263
0.351568 0.346441 0.352117
0.358801 0.353735 0.359396
0.366033 0.361074 0.366735
0.373297 0.368475 0.374121
0.380591 0.375921 0.381552
0.387915 0.383429 0.389044
0.39527 0.390982 0.396582
0.40267 0.398596 0.404166
0.410086 0.406241 0.411795
0.417548 0.413947 0.419471
0.42504 0.421698 0.427207
0.432578 0.429496 0.434974
0.440131 0.437339 0.442802
0.447745 0.445243 0.45066
0.455375 0.453178 0.458579
0.46305 0.461173 0.466529
0.470756 0.4692 0.474525
0.478508 0.477272 0.482582
0.48629 0.485405 0.490669
0.494102 0.493568 0.498802
0.501961 0.501778 0.506981
0.50985 0.510048 0.515206
0.517769 0.518349 0.523476
0.525734 0.526696 0.531777
0.53373 0.535073 0.540124
0.541756 0.543511 0.548516
0.549828 0.55198 0.556954
0.557916 0.56051 0.565438
0.566064 0.56907 0.573953
0.574228 0.577661 0.582513
0.582437 0.586313 0.591119
0.590677 0.594995 0.599756
0.598947 0.603723 0.608438
0.376501 0.370993 0.377096
0.383886 0.378439 0.384527
0.391287 0.385946 0.39202
0.398703 0.3935 0.399573
0.406165 0.401114 0.407156
0.413642 0.408774 0.414801
0.421149 0.41648 0.422492
0.428687 0.424247 0.430228
0.436271 0.432044 0.438025
0.443885 0.439902 0.445853
0.45153 0.447807 0.453727
0.459205 0.455756 0.461646
0.466926 0.463752 0.469627
0.474678 0.471794 0.477638
0.48246 0.479881 0.485695
0.490272 0.488014 0.493797
0.498131 0.496193 0.501945
0.50602 0.504417 0.51014
0.513939 0.512673 0.518364
0.521904 0.520989 0.52665
0.5299 0.529351 0.534966
0.537926 0.537743 0.543328
0.545998 0.546181 0.551736
0.554086 0.554665 0.560189
0.562234 0.563195 0.568673
0.570397 0.571771 0.577203
0.578592 0.580377 0.585779
0.586831 0.589029 0.594385
0.595102 0.597726 0.603052
0.603418 0.60647 0.611734
0.611749 0.615244 0.620478
0.620127 0.624063 0.629252
0.628534 0.632929 0.638071
0.401968 0.396078 0.402594
0.409506 0.403693 0.410178
0.41706 0.411353 0.417838
0.424628 0.419059 0.425528
0.432242 0.426825 0.43328
0.439872 0.434638 0.441077
0.447532 0.442496 0.44892
0.455222 0.450401 0.456809
0.462959 0.458366 0.464744
0.47071 0.466361 0.472724
0.478508 0.474418 0.480751
0.486336 0.482506 0.488823
0.494194 0.490654 0.496925
0.502083 0.498833 0.505089
0.510018 0.507073 0.513298
0.517983 0.515343 0.521538
0.525979 0.523659 0.529824
0.534005 0.532036 0.538155
0.542077 0.540444 0.546532
0.550179 0.548882 0.554955
0.558312 0.557382 0.563409
0.566476 0.565927 0.571908
0.57467 0.574502 0.580453
0.58291 0.583124 0.589044
0.59118 0.591791 0.597665
0.599481 0.600488 0.606332
0.607828 0.609232 0.615045
0.61619 0.618021 0.623789
0.624598 0.626856 0.632578
0.633036 0.635721 0.641413
0.64152 0.644633 0.650278
0.650019 0.65359 0.65919
0.658564 0.662577 0.668132
0.427939 0.421698 0.428595
0.43563 0.42945 0.436347
0.443336 0.437263 0.444144
0.451057 0.445136 0.452003
0.458808 0.45304 0.459892
0.46659 0.461006 0.467842
0.474403 0.469017 0.475822
0.482246 0.477073 0.483864
0.49012 0.485176 0.491951
0.498024 0.493324 0.500069
0.505959 0.501518 0.508232
0.513939 0.509758 0.516457
0.521935 0.518044 0.524712
0.529976 0.526375 0.533013
0.538048 0.534737 0.54136
0.546151 0.54316 0.549737
0.554284 0.551614 0.558175
0.562448 0.560128 0.566644
0.570657 0.568673 0.575158
0.578897 0.577264 0.583703
0.587167 0.585885 0.592309
0.595468 0.594568 0.600946
0.6038 0.603281 0.609628
0.612177 0.612039 0.618341
0.620584 0.620829 0.6271
0.629023 0.629664 0.635904
0.637491 0.638544 0.644739
0.645991 0.647471 0.65362
0.654536 0.656428 0.662547
0.663096 0.665431 0.671504
0.671702 0.674479 0.680507
0.680339 0.683558 0.68954
0.689006 0.692668 0.698619
0.454398 0.447837 0.4551
0.462242 0.455741 0.463004
0.4701 0.463691 0.470954
0.477974 0.471702 0.47895
0.485878 0.479774 0.486992
0.493797 0.487877 0.495079
0.501762 0.496025 0.503227
0.509743 0.504234 0.511406
0.517769 0.512474 0.519631
0.525811 0.520775 0.527886
0.533898 0.529107 0.536202
0.542 0.537484 0.544564
0.550149 0.545907 0.552956
0.558328 0.554376 0.561395
0.566537 0.56289 0.569879
0.574777 0.57145 0.578408
0.583047 0.580041 0.586969
0.591348 0.588678 0.595575
0.599695 0.59736 0.604227
0.608057 0.606088 0.612909
0.616464 0.614847 0.621653
0.624903 0.623652 0.630411
0.633371 0.632502 0.639231
0.641886 0.641398 0.648081
0.650416 0.650324 0.656977
0.658991 0.659297 0.665904
0.667582 0.668299 0.674876
0.676219 0.677348 0.683879
0.684886 0.686442 0.692927
0.693584 0.695567 0.702022
0.702312 0.704738 0.711147
0.71107 0.713954 0.720317
0.719875 0.723201 0.729519
0.481361 0.474464 0.482109
0.489357 0.482521 0.49015
0.497353 0.490623 0.498238
0.505379 0.498772 0.506386
0.51342 0.506981 0.51458
0.521492 0.515236 0.522805
0.529595 0.523537 0.53109
0.537713 0.531868 0.539406
0.545876 0.540261 0.547768
0.55407 0.548684 0.556176
0.56228 0.557168 0.56463
0.570535 0.565682 0.573129
0.57882 0.574243 0.581659
0.587121 0.582849 0.590234
0.595468 0.591501 0.598856
0.603845 0.600183 0.607523
0.612253 0.608927 0.61622
0.620691 0.6177 0.624964
0.629175 0.626505 0.633738
0.637675 0.63537 0.642557
0.64622 0.644266 0.651423
0.65478 0.653208 0.660334
0.663386 0.662181 0.669276
